;VERSION:0.5.0
;MINX:-15.0
;MINY:-15.0
;MINZ:0.0
;MAXX:15.0
;MAXY:15.0
;MAXZ:5.0
;FLAVOR:Marlin 
;TIME:4842 
;Filament used: 1.06592m, 0.433955m 
;Layer height: 0.2 
;Generated with Cura_SteamEngine  
G28 A0 ; park the axle A, if not, there will be an error
G28 C0 ; park the axle C, if not, there will be an error
T0 
M140 S50 
M105 
M190 S50 
M104 S210 
M104 T1 S175 
M105 
M109 S210 
M105 
M109 T1 S175 
M82 ;absolute extrusion mode 
;STE Slicer 5D Gcode
START
G1 F200 E15 ;extrude 15 mm of feed stock
G1 F200 E13.5 ;make retraction
G92 E0 ;zero the extruded length again
G54;Move to the first coordinate system 
G92 E0 
G1 F1800 E-3 
;LAYER_COUNT:25 
;LAYER:0 
M107 
M107 P3 
G0 F1800 X129.042 Y123.819 Z0.3 
;TYPE:SKIRT 
G1 F1800 E0 
G1 F450 X129.32 Y123.592 E0.01791 
G1 X130.498 Y122.726 E0.09085 
G1 X130.996 Y122.419 E0.12004 
G1 X131.481 Y122.172 E0.14719 
G1 X132.12 Y121.92 E0.18146 
G1 X133.111 Y121.635 E0.2329 
G1 X133.765 Y121.511 E0.26611 
G1 X134.658 Y121.426 E0.31087 
G1 X135.365 Y121.429 E0.34614 
G1 X136.364 Y121.531 E0.39624 
G1 X137.045 Y121.668 E0.43089 
G1 X137.956 Y121.945 E0.4784 
G1 X138.38 Y122.103 E0.50097 
G1 X143.44 Y124.369 E0.77758 
G1 X148.514 Y126.307 E1.04856 
G1 X153.725 Y127.964 E1.32136 
G1 X159.065 Y129.338 E1.59645 
G1 X161.647 Y129.884 E1.72812 
G1 X167.037 Y130.79 E2.0008 
G1 X172.875 Y131.429 E2.2938 
G1 X173.402 Y131.527 E2.32054 
G1 X173.909 Y131.702 E2.3473 
G1 X174.384 Y131.951 E2.37405 
G1 X174.817 Y132.267 E2.4008 
G1 X175.198 Y132.644 E2.42754 
G1 X175.519 Y133.074 E2.45431 
G1 X175.773 Y133.546 E2.48105 
G1 X175.954 Y134.051 E2.50781 
G1 X176.057 Y134.578 E2.5346 
G1 X176.083 Y135.007 E2.55605 
G1 X176.091 Y164.99 E4.0519 
G1 X176.051 Y165.525 E4.07867 
G1 X175.932 Y166.048 E4.10543 
G1 X175.737 Y166.547 E4.13216 
G1 X175.47 Y167.012 E4.15891 
G1 X175.137 Y167.432 E4.18565 
G1 X174.745 Y167.798 E4.21241 
G1 X174.303 Y168.102 E4.23917 
G1 X173.82 Y168.337 E4.26597 
G1 X173.309 Y168.497 E4.29268 
G1 X172.779 Y168.579 E4.31944 
G1 X172.491 Y168.591 E4.33382 
G1 X142.509 Y168.59 E5.82963 
G1 X141.974 Y168.55 E5.85639 
G1 X141.451 Y168.431 E5.88315 
G1 X140.952 Y168.236 E5.90988 
G1 X140.487 Y167.968 E5.93666 
G1 X140.067 Y167.635 E5.9634 
G1 X139.701 Y167.243 E5.99015 
G1 X139.397 Y166.801 E6.01692 
G1 X139.163 Y166.318 E6.04369 
G1 X138.972 Y165.66 E6.07788 
G1 X138.548 Y163.424 E6.19142 
G1 X137.306 Y158.049 E6.46665 
G1 X136.592 Y155.462 E6.60054 
G1 X134.911 Y150.25 E6.87375 
G1 X132.951 Y145.176 E7.14513 
G1 X130.694 Y140.19 E7.41818 
G1 X127.197 Y133.567 E7.79183 
G1 X126.932 Y132.921 E7.82667 
G1 X126.658 Y132.008 E7.87422 
G1 X126.521 Y131.299 E7.91025 
G1 X126.428 Y130.277 E7.96145 
G1 X126.431 Y129.589 E7.99577 
G1 X126.525 Y128.658 E8.04246 
G1 X126.662 Y127.975 E8.07721 
G1 X126.945 Y127.042 E8.12585 
G1 X127.219 Y126.383 E8.16146 
G1 X127.688 Y125.51 E8.2109 
G1 X128.079 Y124.927 E8.24592 
G1 X128.672 Y124.206 E8.2925 
G1 X129.042 Y123.819 E8.31921 
G0 F1800 X129.332 Y124.096 
G1 F450 X129.557 Y123.915 E8.33362 
G1 X130.735 Y123.049 E8.40656 
G1 X131.178 Y122.775 E8.43255 
G1 X131.663 Y122.528 E8.4597 
G1 X132.231 Y122.305 E8.49014 
G1 X133.222 Y122.02 E8.54159 
G1 X133.803 Y121.909 E8.5711 
G1 X134.696 Y121.824 E8.61585 
G1 X135.324 Y121.827 E8.64718 
G1 X136.323 Y121.929 E8.69728 
G1 X136.929 Y122.05 E8.72811 
G1 X137.84 Y122.327 E8.77562 
G1 X138.217 Y122.468 E8.7957 
G1 X143.298 Y124.743 E9.07344 
G1 X148.392 Y126.688 E9.34548 
G1 X153.609 Y128.348 E9.61861 
G1 X158.952 Y129.723 E9.89386 
G1 X161.567 Y130.275 E10.0272 
G1 X166.998 Y131.189 E10.30196 
G1 X172.831 Y131.827 E10.59471 
G1 X173.328 Y131.922 E10.61995 
G1 X173.803 Y132.093 E10.64514 
G1 X174.246 Y132.337 E10.67037 
G1 X174.645 Y132.648 E10.69561 
G1 X174.989 Y133.018 E10.72082 
G1 X175.271 Y133.438 E10.74605 
G1 X175.484 Y133.897 E10.7713 
G1 X175.621 Y134.383 E10.79649 
G1 X175.683 Y135.007 E10.82778 
G1 X175.691 Y164.99 E12.32363 
G1 X175.651 Y165.494 E12.34886 
G1 X175.533 Y165.986 E12.3741 
G1 X175.338 Y166.452 E12.3993 
G1 X175.072 Y166.882 E12.42453 
G1 X174.742 Y167.265 E12.44975 
G1 X174.356 Y167.591 E12.47496 
G1 X173.923 Y167.853 E12.50021 
G1 X173.454 Y168.043 E12.52545 
G1 X172.962 Y168.156 E12.55064 
G1 X172.491 Y168.191 E12.5742 
G1 X142.509 Y168.19 E14.07001 
G1 X142.005 Y168.15 E14.09523 
G1 X141.514 Y168.031 E14.12044 
G1 X141.047 Y167.836 E14.14568 
G1 X140.617 Y167.571 E14.17088 
G1 X140.234 Y167.24 E14.19614 
G1 X139.908 Y166.854 E14.22135 
G1 X139.647 Y166.421 E14.24657 
G1 X139.457 Y165.953 E14.27177 
G1 X139.365 Y165.586 E14.29065 
G1 X138.938 Y163.333 E14.40505 
G1 X137.698 Y157.966 E14.67986 
G1 X136.976 Y155.352 E14.81516 
G1 X135.286 Y150.109 E15.08999 
G1 X133.316 Y145.009 E15.36275 
G1 X131.061 Y140.03 E15.63544 
G1 X127.55 Y133.38 E16.01061 
G1 X127.315 Y132.806 E16.04156 
G1 X127.041 Y131.893 E16.08911 
G1 X126.919 Y131.263 E16.12113 
G1 X126.826 Y130.241 E16.17233 
G1 X126.829 Y129.63 E16.20281 
G1 X126.923 Y128.699 E16.24949 
G1 X127.045 Y128.091 E16.28043 
G1 X127.328 Y127.158 E16.32907 
G1 X127.571 Y126.573 E16.36068 
G1 X128.04 Y125.7 E16.41012 
G1 X128.388 Y125.181 E16.44129 
G1 X128.981 Y124.46 E16.48787 
G1 X129.332 Y124.096 E16.5131 
G1 F1800 E13.5131 
;MESH:Object1
G0 F1800 X141.835 Y135.614 
G0 X143.114 Y135.614 
G0 X148.405 Y140.905 
G0 X148.475 Y140.975 
;TYPE:WALL-INNER 
G1 F1800 E16.5131 
G1 F450 X148.475 Y159.025 E17.41361 
G1 X166.525 Y159.025 E18.31413 
G1 X166.525 Y140.975 E19.21465 
G1 X148.475 Y140.975 E20.11517 
G0 F1800 X148.405 Y140.905 
G0 X148.447 Y159.053 
G0 X171.83 Y164.33 
G0 X171.9 Y164.4 
G1 F450 X143.1 Y164.4 E21.55201 
G1 X143.1 Y135.6 E22.98884 
G1 X171.9 Y135.6 E24.42568 
G1 X171.9 Y164.4 E25.86252 
G0 F1800 X172.3 Y164.8 
;TYPE:WALL-OUTER 
G1 F450 X142.7 Y164.8 E27.33927 
G1 X142.7 Y135.2 E28.81602 
G1 X172.3 Y135.2 E30.29277 
G1 X172.3 Y164.8 E31.76952 
G0 F1800 X172.1 Y164.8 
G0 X171.83 Y164.33 
G0 X166.553 Y140.947 
G0 X148.875 Y140.875 
G0 X148.875 Y141.375 
G1 F450 X148.875 Y158.625 E32.63013 
G1 X166.125 Y158.625 E33.49073 
G1 X166.125 Y141.375 E34.35134 
G1 X148.875 Y141.375 E35.21194 
G0 F1800 X148.875 Y141.575 
G0 X148.375 Y141.575 
G0 X148.085 Y140.585 
;TYPE:SKIN 
G1 F450 X148.085 Y159.415 E36.15138 
G1 X166.915 Y159.415 E37.09081 
G1 X166.915 Y140.585 E38.03024 
G1 X148.085 Y140.585 E38.96967 
G0 F1800 X143.49 Y135.99 
G1 F450 X171.51 Y135.99 E40.3676 
G1 X171.51 Y164.01 E41.76552 
G1 X143.49 Y164.01 E43.16344 
G1 X143.49 Y135.99 E44.56137 
G0 F1800 X171.329 Y136.256 
G1 F450 X171.242 Y136.17 E44.56747 
G0 F1800 X170.677 Y136.17 
G1 F450 X171.329 Y136.822 E44.61347 
G0 F1800 X171.329 Y137.388 
G1 F450 X170.111 Y136.17 E44.69941 
G0 F1800 X169.545 Y136.17 
G1 F450 X171.329 Y137.953 E44.82525 
G0 F1800 X171.329 Y138.519 
G1 F450 X168.98 Y136.17 E44.99098 
G0 F1800 X168.414 Y136.17 
G1 F450 X171.329 Y139.085 E45.19665 
G0 F1800 X171.329 Y139.65 
G1 F450 X167.848 Y136.17 E45.44222 
G0 F1800 X167.283 Y136.17 
G1 F450 X171.329 Y140.216 E45.72768 
G0 F1800 X171.329 Y140.782 
G1 F450 X166.717 Y136.17 E46.05309 
G0 F1800 X166.151 Y136.17 
G1 F450 X171.329 Y141.347 E46.41839 
G0 F1800 X171.329 Y141.913 
G1 F450 X165.586 Y136.17 E46.82359 
G0 F1800 X165.02 Y136.17 
G1 F450 X171.329 Y142.479 E47.26872 
G0 F1800 X171.329 Y143.044 
G1 F450 X164.454 Y136.17 E47.75375 
G0 F1800 X163.888 Y136.17 
G1 F450 X171.329 Y143.61 E48.27872 
G0 F1800 X171.329 Y144.176 
G1 F450 X163.323 Y136.17 E48.84359 
G0 F1800 X162.757 Y136.17 
G1 F450 X166.991 Y140.404 E49.14232 
G0 F1800 X167.094 Y140.507 
G1 F450 X171.329 Y144.741 E49.44109 
G0 F1800 X171.329 Y145.307 
G1 F450 X167.094 Y141.072 E49.73989 
G0 F1800 X167.094 Y141.638 
G1 F450 X171.329 Y145.873 E50.03869 
G0 F1800 X171.329 Y146.438 
G1 F450 X167.094 Y142.204 E50.33746 
G0 F1800 X167.094 Y142.769 
G1 F450 X171.329 Y147.004 E50.63626 
G0 F1800 X171.329 Y147.57 
G1 F450 X167.094 Y143.335 E50.93506 
G0 F1800 X167.094 Y143.901 
G1 F450 X171.329 Y148.136 E51.23386 
G0 F1800 X171.329 Y148.701 
G1 F450 X167.094 Y144.466 E51.53266 
G0 F1800 X167.094 Y145.032 
G1 F450 X171.329 Y149.267 E51.83147 
G0 F1800 X171.329 Y149.833 
G1 F450 X167.094 Y145.598 E52.13027 
G0 F1800 X167.094 Y146.163 
G1 F450 X171.329 Y150.398 E52.42907 
G0 F1800 X171.329 Y150.964 
G1 F450 X167.094 Y146.729 E52.72787 
G0 F1800 X167.094 Y147.295 
G1 F450 X171.329 Y151.53 E53.02668 
G0 F1800 X171.329 Y152.095 
G1 F450 X167.094 Y147.86 E53.32548 
G0 F1800 X167.094 Y148.426 
G1 F450 X171.329 Y152.661 E53.62428 
G0 F1800 X171.329 Y153.227 
G1 F450 X167.094 Y148.992 E53.92308 
G0 F1800 X167.094 Y149.558 
G1 F450 X171.329 Y153.792 E54.22185 
G0 F1800 X171.329 Y154.358 
G1 F450 X167.094 Y150.123 E54.52065 
G0 F1800 X167.094 Y150.689 
G1 F450 X171.329 Y154.924 E54.81945 
G0 F1800 X171.329 Y155.489 
G1 F450 X167.094 Y151.255 E55.11822 
G0 F1800 X167.094 Y151.82 
G1 F450 X171.329 Y156.055 E55.41702 
G0 F1800 X171.329 Y156.621 
G1 F450 X167.094 Y152.386 E55.71582 
G0 F1800 X167.094 Y152.952 
G1 F450 X171.329 Y157.187 E56.01463 
G0 F1800 X171.329 Y157.752 
G1 F450 X167.094 Y153.517 E56.31343 
G0 F1800 X167.094 Y154.083 
G1 F450 X171.329 Y158.318 E56.61223 
G0 F1800 X171.329 Y158.884 
G1 F450 X167.094 Y154.649 E56.91103 
G0 F1800 X167.094 Y155.214 
G1 F450 X171.329 Y159.449 E57.20983 
G0 F1800 X171.329 Y160.015 
G1 F450 X167.094 Y155.78 E57.50864 
G0 F1800 X167.094 Y156.346 
G1 F450 X171.329 Y160.581 E57.80744 
G0 F1800 X171.329 Y161.146 
G1 F450 X167.094 Y156.911 E58.10624 
G0 F1800 X167.094 Y157.477 
G1 F450 X171.329 Y161.712 E58.40504 
G0 F1800 X171.329 Y162.278 
G1 F450 X167.094 Y158.043 E58.70385 
G0 F1800 X167.094 Y158.609 
G1 F450 X171.329 Y162.843 E59.00261 
G0 F1800 X171.329 Y163.409 
G1 F450 X167.094 Y159.174 E59.30141 
G0 F1800 X166.948 Y159.594 
G1 F450 X171.183 Y163.829 E59.60022 
G0 F1800 X170.617 Y163.829 
G1 F450 X166.382 Y159.594 E59.89902 
G0 F1800 X165.817 Y159.594 
G1 F450 X170.052 Y163.829 E60.19782 
G0 F1800 X169.486 Y163.829 
G1 F450 X165.251 Y159.594 E60.49662 
G0 F1800 X164.685 Y159.594 
G1 F450 X168.92 Y163.829 E60.79542 
G0 F1800 X168.355 Y163.829 
G1 F450 X164.12 Y159.594 E61.09423 
G0 F1800 X163.554 Y159.594 
G1 F450 X167.789 Y163.829 E61.39303 
G0 F1800 X167.223 Y163.829 
G1 F450 X162.988 Y159.594 E61.69183 
G0 F1800 X162.423 Y159.594 
G1 F450 X166.657 Y163.829 E61.9906 
G0 F1800 X166.092 Y163.829 
G1 F450 X161.857 Y159.594 E62.2894 
G0 F1800 X161.291 Y159.594 
G1 F450 X165.526 Y163.829 E62.5882 
G0 F1800 X164.96 Y163.829 
G1 F450 X160.726 Y159.594 E62.88697 
G0 F1800 X160.16 Y159.594 
G1 F450 X164.395 Y163.829 E63.18577 
G0 F1800 X163.829 Y163.829 
G1 F450 X159.594 Y159.594 E63.48457 
G0 F1800 X159.029 Y159.594 
G1 F450 X163.263 Y163.829 E63.78334 
G0 F1800 X162.698 Y163.829 
G1 F450 X158.463 Y159.594 E64.08214 
G0 F1800 X157.897 Y159.594 
G1 F450 X162.132 Y163.829 E64.38094 
G0 F1800 X161.566 Y163.829 
G1 F450 X157.331 Y159.594 E64.67975 
G0 F1800 X156.766 Y159.594 
G1 F450 X161.001 Y163.829 E64.97855 
G0 F1800 X160.435 Y163.829 
G1 F450 X156.2 Y159.594 E65.27735 
G0 F1800 X155.634 Y159.594 
G1 F450 X159.869 Y163.829 E65.57615 
G0 F1800 X159.304 Y163.829 
G1 F450 X155.069 Y159.594 E65.87496 
G0 F1800 X154.503 Y159.594 
G1 F450 X158.738 Y163.829 E66.17376 
G0 F1800 X158.172 Y163.829 
G1 F450 X153.937 Y159.594 E66.47256 
G0 F1800 X153.372 Y159.594 
G1 F450 X157.607 Y163.829 E66.77136 
G0 F1800 X157.041 Y163.829 
G1 F450 X152.806 Y159.594 E67.07016 
G0 F1800 X152.24 Y159.594 
G1 F450 X156.475 Y163.829 E67.36897 
G0 F1800 X155.909 Y163.829 
G1 F450 X151.675 Y159.594 E67.66773 
G0 F1800 X151.109 Y159.594 
G1 F450 X155.344 Y163.829 E67.96653 
G0 F1800 X154.778 Y163.829 
G1 F450 X150.543 Y159.594 E68.26534 
G0 F1800 X149.978 Y159.594 
G1 F450 X154.212 Y163.829 E68.5641 
G0 F1800 X153.647 Y163.829 
G1 F450 X149.412 Y159.594 E68.86291 
G0 F1800 X148.846 Y159.594 
G1 F450 X153.081 Y163.829 E69.16171 
G0 F1800 X152.515 Y163.829 
G1 F450 X148.28 Y159.594 E69.46051 
G0 F1800 X147.904 Y159.218 
G1 F450 X143.669 Y154.982 E69.75935 
G0 F1800 X143.669 Y154.417 
G1 F450 X147.904 Y158.652 E70.05815 
G0 F1800 X147.904 Y158.087 
G1 F450 X143.669 Y153.851 E70.35699 
G0 F1800 X143.669 Y153.285 
G1 F450 X147.904 Y157.521 E70.65582 
G0 F1800 X147.904 Y156.955 
G1 F450 X143.669 Y152.72 E70.95463 
G0 F1800 X143.669 Y152.154 
G1 F450 X147.904 Y156.39 E71.25346 
G0 F1800 X147.904 Y155.824 
G1 F450 X143.669 Y151.588 E71.5523 
G0 F1800 X143.669 Y151.023 
G1 F450 X147.904 Y155.258 E71.8511 
G0 F1800 X147.904 Y154.693 
G1 F450 X143.669 Y150.457 E72.14994 
G0 F1800 X143.669 Y149.891 
G1 F450 X147.904 Y154.127 E72.44878 
G0 F1800 X147.904 Y153.561 
G1 F450 X143.669 Y149.326 E72.74758 
G0 F1800 X143.669 Y148.76 
G1 F450 X147.904 Y152.995 E73.04638 
G0 F1800 X147.904 Y152.43 
G1 F450 X143.669 Y148.194 E73.34522 
G0 F1800 X143.669 Y147.629 
G1 F450 X147.904 Y151.864 E73.64402 
G0 F1800 X147.904 Y151.298 
G1 F450 X143.669 Y147.063 E73.94282 
G0 F1800 X143.669 Y146.497 
G1 F450 X147.904 Y150.733 E74.24166 
G0 F1800 X147.904 Y150.167 
G1 F450 X143.669 Y145.931 E74.5405 
G0 F1800 X143.669 Y145.366 
G1 F450 X147.904 Y149.601 E74.8393 
G0 F1800 X147.904 Y149.036 
G1 F450 X143.669 Y144.8 E75.13814 
G0 F1800 X143.669 Y144.234 
G1 F450 X147.904 Y148.47 E75.43698 
G0 F1800 X147.904 Y147.904 
G1 F450 X143.669 Y143.669 E75.73578 
G0 F1800 X143.669 Y143.103 
G1 F450 X147.904 Y147.339 E76.03462 
G0 F1800 X147.904 Y146.773 
G1 F450 X143.669 Y142.537 E76.33345 
G0 F1800 X143.669 Y141.972 
G1 F450 X147.904 Y146.207 E76.63225 
G0 F1800 X147.904 Y145.642 
G1 F450 X143.669 Y141.406 E76.93109 
G0 F1800 X143.669 Y140.84 
G1 F450 X147.904 Y145.076 E77.22993 
G0 F1800 X147.904 Y144.51 
G1 F450 X143.669 Y140.275 E77.52873 
G0 F1800 X143.669 Y139.709 
G1 F450 X147.904 Y143.945 E77.82757 
G0 F1800 X147.904 Y143.379 
G1 F450 X143.669 Y139.143 E78.12641 
G0 F1800 X143.669 Y138.578 
G1 F450 X147.904 Y142.813 E78.42521 
G0 F1800 X147.904 Y142.247 
G1 F450 X143.669 Y138.012 E78.72401 
G0 F1800 X143.669 Y137.446 
G1 F450 X147.904 Y141.682 E79.02285 
G0 F1800 X147.904 Y141.116 
G1 F450 X143.669 Y136.881 E79.32165 
G0 F1800 X143.669 Y136.315 
G1 F450 X147.904 Y140.55 E79.62045 
G0 F1800 X148.324 Y140.404 
G1 F450 X144.089 Y136.17 E79.91922 
G0 F1800 X144.655 Y136.17 
G1 F450 X148.889 Y140.404 E80.21795 
G0 F1800 X149.455 Y140.404 
G1 F450 X145.221 Y136.17 E80.51668 
G0 F1800 X145.787 Y136.17 
G1 F450 X150.021 Y140.404 E80.81541 
G0 F1800 X150.586 Y140.404 
G1 F450 X146.352 Y136.17 E81.11415 
G0 F1800 X146.918 Y136.17 
G1 F450 X151.152 Y140.404 E81.41288 
G0 F1800 X151.718 Y140.404 
G1 F450 X147.484 Y136.17 E81.71161 
G0 F1800 X148.049 Y136.17 
G1 F450 X152.283 Y140.404 E82.01034 
G0 F1800 X152.849 Y140.404 
G1 F450 X148.615 Y136.17 E82.30907 
G0 F1800 X149.181 Y136.17 
G1 F450 X153.415 Y140.404 E82.6078 
G0 F1800 X153.98 Y140.404 
G1 F450 X149.746 Y136.17 E82.90654 
G0 F1800 X150.312 Y136.17 
G1 F450 X154.546 Y140.404 E83.20527 
G0 F1800 X155.112 Y140.404 
G1 F450 X150.878 Y136.17 E83.504 
G0 F1800 X151.443 Y136.17 
G1 F450 X155.678 Y140.404 E83.80277 
G0 F1800 X156.243 Y140.404 
G1 F450 X152.009 Y136.17 E84.1015 
G0 F1800 X152.575 Y136.17 
G1 F450 X156.809 Y140.404 E84.40023 
G0 F1800 X157.375 Y140.404 
G1 F450 X153.14 Y136.17 E84.699 
G0 F1800 X153.706 Y136.17 
G1 F450 X157.94 Y140.404 E84.99773 
G0 F1800 X158.506 Y140.404 
G1 F450 X154.272 Y136.17 E85.29646 
G0 F1800 X154.838 Y136.17 
G1 F450 X159.072 Y140.404 E85.59519 
G0 F1800 X159.637 Y140.404 
G1 F450 X155.403 Y136.17 E85.89392 
G0 F1800 X155.969 Y136.17 
G1 F450 X160.203 Y140.404 E86.19265 
