;MINX:-20.0
;MINY-20.0
;MINZ:0.0
;MAXX:20.0
;MAXY20.0
;MAXZ:3.4
;FLAVOR:Marlin
;TIME:3145
;Filament used: 1.11158m, 1.32138m
;Layer height: 0.2
;Generated with Cura_SteamEngine 
T1
M140 S60
M105
M190 S60
M104 S175
M104 T1 S200
M105
M109 S175
M105
M109 T1 S200
M82 ;absolute extrusion mode
;STE Slicer 5D Gcode
START
G1 F200 E15 ;extrude 15 mm of feed stock
G1 F200 E13.5 ;make retraction
G92 E0 ;zero the extruded length again
G54;Move to the first coordinate system
G92 E0
G1 F1500 E-3
;LAYER_COUNT:17
;LAYER:-6
G1 F1200 E-4
G92 E0
T1
G92 E0
M107
G0 F3600 X62.698 Y85.083 Z0.36
;TYPE:SUPPORT-INTERFACE
G1 F1350 X63.156 Y84.638 E0.07646
G1 X63.747 Y84.102 E0.17199
G1 X64.361 Y83.576 E0.2688
G1 X64.991 Y83.072 E0.3654
G1 X65.732 Y82.522 E0.4759
G1 X66.303 Y82.127 E0.55903
G1 X67.099 Y81.614 E0.67242
G1 X67.795 Y81.199 E0.76945
G1 X68.517 Y80.803 E0.86805
G1 X69.707 Y80.214 E1.02703
G1 X69.944 Y80.104 E1.05832
G1 X70.697 Y79.781 E1.15642
G1 X71.387 Y79.512 E1.2451
G1 X72.154 Y79.238 E1.34262
G1 X72.843 Y79.017 E1.42926
G1 X73.571 Y78.807 E1.51998
G1 X74.346 Y78.61 E1.61573
G1 X75.09 Y78.447 E1.70692
G1 X75.909 Y78.253 E1.8077
G1 X76.401 Y78.193 E1.86705
G1 X76.87 Y78.152 E1.92342
G1 X77.703 Y78.06 E2.02377
G1 X78.493 Y77.999 E2.11864
G1 X79.319 Y77.961 E2.21765
G1 X80.274 Y77.954 E2.332
G1 X81.139 Y77.978 E2.43561
G1 X81.905 Y78.027 E2.52752
G1 X82.73 Y78.105 E2.62674
G1 X83.002 Y78.141 E2.65959
G1 X83.346 Y78.177 E2.70101
G1 X83.69 Y78.2 E2.74229
G1 X84.072 Y78.25 E2.78842
G1 X84.22 Y78.28 E2.8065
G1 X85.057 Y78.485 E2.90968
G1 X85.468 Y78.568 E2.95988
G1 X86.311 Y78.775 E3.06382
G1 X87.735 Y79.202 E3.24183
G1 X88.09 Y79.325 E3.28681
G1 X89.271 Y79.77 E3.43793
G1 X90.032 Y80.093 E3.53691
G1 X90.791 Y80.45 E3.63734
G1 X91.498 Y80.81 E3.73234
G1 X92.198 Y81.195 E3.828
G1 X92.901 Y81.614 E3.92599
G1 X93.574 Y82.045 E4.02168
G1 X94.367 Y82.594 E4.13716
G1 X94.883 Y82.976 E4.21404
G1 X95.506 Y83.465 E4.30887
G1 X96.611 Y84.428 E4.48437
G1 X96.845 Y84.64 E4.52218
G1 X97.417 Y85.198 E4.61786
G1 X97.987 Y85.794 E4.7166
G1 X98.127 Y85.952 E4.74188
G1 X98.118 Y85.956 E4.74306
G1 X98.945 Y86.825 E4.8867
G1 X99.256 Y87.236 E4.94841
G1 X99.525 Y87.62 E5.00455
G1 X100.004 Y88.269 E5.10113
G1 X100.368 Y88.794 E5.17762
G1 X100.874 Y89.578 E5.28935
G1 X101.301 Y90.295 E5.38927
G1 X101.719 Y91.059 E5.49355
G1 X102.392 Y92.434 E5.67685
G1 X102.689 Y93.122 E5.76658
G1 X102.848 Y93.462 E5.81152
G1 X103.067 Y93.988 E5.87974
G1 X103.263 Y94.657 E5.96321
G1 X103.513 Y95.442 E6.06186
G1 X103.694 Y96.071 E6.14023
G1 X103.925 Y96.998 E6.25462
G1 X104.093 Y97.784 E6.35085
G1 X104.235 Y98.574 E6.44696
G1 X104.352 Y99.382 E6.54472
G1 X104.439 Y100.172 E6.63988
G1 X104.501 Y100.97 E6.73572
G1 X104.538 Y101.779 E6.83269
G1 X104.549 Y102.476 E6.91615
G1 X104.537 Y103.237 E7.00728
G1 X104.502 Y104.022 E7.10137
G1 X104.427 Y104.944 E7.21213
G1 X104.352 Y105.618 E7.29333
G1 X104.238 Y106.399 E7.38784
G1 X104.06 Y107.375 E7.50663
G1 X103.899 Y108.118 E7.59766
G1 X103.683 Y108.964 E7.7022
G1 X103.038 Y111.098 E7.96914
G1 X102.849 Y111.538 E8.02648
G1 X102.641 Y111.985 E8.08551
G1 X102.322 Y112.712 E8.18057
G1 X101.94 Y113.508 E8.28629
G1 X101.487 Y114.368 E8.40267
G1 X101.122 Y115.009 E8.49099
G1 X100.699 Y115.697 E8.5877
G1 X100.264 Y116.354 E8.68205
G1 X99.749 Y117.079 E8.78853
G1 X99.557 Y117.328 E8.82617
G1 X99.304 Y117.691 E8.87915
G1 X99.031 Y118.064 E8.9345
G1 X98.643 Y118.557 E9.00962
G1 X98.651 Y118.565 E9.01097
G1 X98.507 Y118.76 E9.04
G1 X98.174 Y119.355 E9.12164
G1 X97.917 Y119.988 E9.20344
G1 X97.743 Y120.648 E9.28517
G1 X97.653 Y121.325 E9.36694
G1 X97.649 Y122.008 E9.44873
G1 X97.732 Y122.686 E9.53051
G1 X97.899 Y123.348 E9.61226
G1 X98.149 Y123.983 E9.69397
G1 X98.476 Y124.582 E9.77569
G1 X98.877 Y125.135 E9.85748
G1 X99.345 Y125.633 E9.93931
G1 X99.871 Y126.068 E10.02103
G1 X100.296 Y126.336 E10.0812
G1 X100.282 Y126.357 E10.08422
G1 X101.022 Y126.719 E10.18286
G1 X102.782 Y127.665 E10.4221
G1 X103.117 Y127.872 E10.46926
G1 X103.446 Y128.109 E10.51781
G1 X104.913 Y129.31 E10.74482
G1 X105.322 Y129.683 E10.8111
G1 X105.505 Y129.871 E10.84251
G1 X106.804 Y131.446 E11.08696
G1 X107.142 Y131.905 E11.15521
G1 X107.275 Y132.11 E11.18447
G1 X107.367 Y132.268 E11.20636
G1 X108.248 Y133.916 E11.43012
G1 X108.485 Y134.422 E11.49702
G1 X108.62 Y134.78 E11.54283
G1 X109.193 Y136.659 E11.77805
G1 X109.315 Y137.164 E11.84025
G1 X109.357 Y137.392 E11.86801
G1 X109.386 Y137.61 E11.89434
G1 X109.57 Y139.466 E12.11766
G1 X109.594 Y140.041 E12.18657
G1 X109.582 Y140.386 E12.22791
G1 X109.392 Y142.331 E12.4619
G1 X109.303 Y142.893 E12.53003
G1 X109.196 Y143.329 E12.58379
G1 X108.661 Y145.094 E12.80462
G1 X108.475 Y145.601 E12.86928
G1 X108.309 Y145.967 E12.9174
G1 X107.41 Y147.649 E13.14576
G1 X107.127 Y148.117 E13.21124
G1 X106.889 Y148.447 E13.25996
G1 X105.689 Y149.913 E13.4868
G1 X105.316 Y150.322 E13.55308
G1 X105.128 Y150.505 E13.5845
G1 X103.552 Y151.805 E13.82912
G1 X103.087 Y152.147 E13.89823
G1 X102.889 Y152.275 E13.92646
G1 X102.706 Y152.38 E13.95172
G1 X101.071 Y153.254 E14.17371
G1 X100.566 Y153.489 E14.2404
G1 X100.219 Y153.62 E14.28481
G1 X98.34 Y154.193 E14.52003
G1 X97.831 Y154.316 E14.58273
G1 X97.593 Y154.36 E14.61171
G1 X97.424 Y154.382 E14.63211
G1 X95.529 Y154.57 E14.86013
G1 X94.966 Y154.594 E14.9276
G1 X94.592 Y154.58 E14.97241
G1 X92.668 Y154.392 E15.20388
G1 X92.104 Y154.303 E15.27225
G1 X91.761 Y154.222 E15.31445
G1 X89.905 Y153.66 E15.54664
G1 X89.383 Y153.468 E15.61324
G1 X89.022 Y153.304 E15.66072
G1 X87.35 Y152.41 E15.88774
G1 X86.882 Y152.127 E15.95322
G1 X86.553 Y151.89 E16.00177
G1 X85.086 Y150.689 E16.22878
G1 X84.676 Y150.315 E16.29523
G1 X84.494 Y150.128 E16.32648
G1 X83.187 Y148.543 E16.57246
G1 X82.857 Y148.094 E16.63918
G1 X82.724 Y147.889 E16.66844
G1 X82.619 Y147.707 E16.6936
G1 X81.745 Y146.071 E16.91569
G1 X81.506 Y145.558 E16.98345
G1 X81.379 Y145.219 E17.0268
G1 X80.806 Y143.339 E17.26213
G1 X80.684 Y142.835 E17.32422
G1 X80.617 Y142.427 E17.37372
G1 X80.43 Y140.529 E17.60208
G1 X80.406 Y139.953 E17.67111
G1 X80.409 Y139.75 E17.69542
G1 X80.427 Y139.504 E17.72495
G1 X80.623 Y137.549 E17.96021
G1 X80.694 Y137.11 E18.01346
G1 X80.806 Y136.66 E18.06899
G1 X81.381 Y134.78 E18.30438
G1 X81.776 Y133.73 E18.43871
G1 X81.763 Y133.73 E18.44027
G1 X81.906 Y133.082 E18.51972
G1 X81.969 Y132.401 E18.60161
G1 X81.945 Y131.719 E18.68332
G1 X81.835 Y131.046 E18.76497
G1 X81.641 Y130.39 E18.84688
G1 X81.366 Y129.765 E18.92864
G1 X81.014 Y129.18 E19.01039
G1 X80.592 Y128.645 E19.09198
G1 X80.104 Y128.165 E19.17394
G1 X79.561 Y127.752 E19.25563
G1 X78.97 Y127.411 E19.33732
G1 X78.34 Y127.146 E19.41916
G1 X77.691 Y126.966 E19.4998
G1 X77.694 Y126.953 E19.5014
G1 X76.998 Y126.859 E19.58549
G1 X76.654 Y126.823 E19.62691
G1 X76.31 Y126.8 E19.66819
G1 X75.928 Y126.75 E19.71432
G1 X75.78 Y126.72 E19.7324
G1 X74.943 Y126.515 E19.83558
G1 X74.532 Y126.432 E19.88579
G1 X73.69 Y126.225 E19.98961
G1 X72.239 Y125.79 E20.17098
G1 X71.91 Y125.675 E20.21271
G1 X70.776 Y125.249 E20.35776
G1 X69.787 Y124.825 E20.4866
G1 X69.209 Y124.55 E20.56324
G1 X68.365 Y124.117 E20.67683
G1 X67.782 Y123.794 E20.75663
G1 X67.078 Y123.374 E20.85479
G1 X66.415 Y122.948 E20.94915
G1 X65.632 Y122.406 E21.06317
G1 X64.999 Y121.934 E21.15771
G1 X64.495 Y121.534 E21.23476
G1 X64.251 Y121.328 E21.27299
G1 X63.153 Y120.358 E21.44842
G1 X62.574 Y119.793 E21.54528
G1 X62.141 Y119.346 E21.6198
G1 X61.873 Y119.048 E21.66779
G1 X61.882 Y119.044 E21.66897
G1 X61.057 Y118.177 E21.81227
G1 X60.744 Y117.764 E21.87431
G1 X60.47 Y117.374 E21.93138
G1 X59.977 Y116.705 E22.03089
G1 X59.63 Y116.202 E22.10406
G1 X59.114 Y115.401 E22.21814
G1 X58.695 Y114.698 E22.31614
G1 X58.272 Y113.922 E22.42196
G1 X57.683 Y112.728 E22.58137
G1 X57.17 Y111.575 E22.73248
G1 X56.989 Y111.156 E22.78713
G1 X56.932 Y111.009 E22.80601
G1 X56.72 Y110.29 E22.89576
G1 X56.484 Y109.55 E22.98876
G1 X56.302 Y108.914 E23.06797
G1 X56.074 Y107.998 E23.181
G1 X55.907 Y107.216 E23.27674
G1 X55.787 Y106.55 E23.35777
G1 X55.669 Y105.772 E23.45199
G1 X55.58 Y105.02 E23.54266
G1 X55.509 Y104.178 E23.64384
G1 X55.467 Y103.379 E23.73964
G1 X55.451 Y102.481 E23.84718
G1 X55.463 Y101.73 E23.93711
G1 X55.506 Y100.859 E24.04153
G1 X55.563 Y100.157 E24.12586
G1 X55.648 Y99.382 E24.21922
G1 X55.791 Y98.426 E24.33496
G1 X55.937 Y97.637 E24.43103
G1 X56.101 Y96.882 E24.52354
G1 X56.327 Y96.002 E24.63233
G1 X56.955 Y93.921 E24.8926
G1 X57.779 Y92.071 E25.13509
G1 X58.153 Y91.313 E25.2363
G1 X58.433 Y90.779 E25.30849
G1 X58.771 Y90.176 E25.39126
G1 X59.301 Y89.303 E25.51355
G1 X59.739 Y88.641 E25.60859
G1 X60.234 Y87.944 E25.71096
G1 X60.441 Y87.676 E25.7515
G1 X60.703 Y87.299 E25.80647
G1 X61.073 Y86.805 E25.88037
G1 X61.795 Y86.05 E26.00546
G1 X61.79 Y86.045 E26.0063
G1 X62.141 Y85.654 E26.06922
G1 X62.698 Y85.083 E26.16473
G0 F3600 X63 Y84.789
G1 F1350 X63 Y120.208 E30.40568
G0 F3600 X64.6 Y121.617
G1 F1350 X64.6 Y83.384 E34.98356
G0 F3600 X66.2 Y82.198
G1 F1350 X66.2 Y122.799 E39.84498
G0 F3600 X67.8 Y123.803
G1 F1350 X67.8 Y81.196 E44.94659
G0 F3600 X69.4 Y80.365
G1 F1350 X69.4 Y124.64 E50.24793
G0 F3600 X71 Y125.333
G1 F1350 X71 Y79.662 E55.71641
G0 F3600 X72.6 Y79.094
G1 F1350 X72.6 Y125.898 E61.32056
G0 F3600 X74.2 Y126.35
G1 F1350 X74.2 Y78.647 E67.03235
G0 F3600 X75.8 Y78.278
G1 F1350 X75.8 Y126.724 E72.8331
G0 F3600 X77.4 Y126.913
G1 F1350 X77.4 Y78.093 E78.67864
G0 F3600 X79 Y77.975
G1 F1350 X79 Y127.428 E84.59997
G0 F3600 X80.6 Y128.655
G1 F1350 X80.6 Y77.964 E90.66953
G0 F3600 X82.2 Y78.055
G1 F1350 X82.2 Y146.922 E98.91542
G0 F3600 X83.8 Y149.286
G1 F1350 X83.8 Y78.215 E107.42521
G0 F3600 X85.4 Y78.555
G1 F1350 X85.4 Y150.946 E116.09306
G0 F3600 X87 Y152.198
G1 F1350 X87 Y78.982 E124.85968
G0 F3600 X88.6 Y79.518
G1 F1350 X88.6 Y153.078 E133.6675
G0 F3600 X90.2 Y153.749
G1 F1350 X90.2 Y80.173 E142.47723
G0 F3600 X91.8 Y80.977
G1 F1350 X91.8 Y154.231 E151.24841
G0 F3600 X93.4 Y154.463
G1 F1350 X93.4 Y81.934 E159.93278
G0 F3600 X95 Y83.068
G1 F1350 X95 Y154.593 E168.49693
G0 F3600 X96.6 Y154.464
G1 F1350 X96.6 Y84.419 E176.88387
G0 F3600 X98.2 Y86.043
G1 F1350 X98.2 Y119.309 E180.86702
G0 F3600 X99.8 Y117.008
G1 F1350 X99.8 Y87.993 E184.34118
G0 F3600 X101.4 Y90.476
G1 F1350 X101.4 Y114.521 E187.22024
G0 F3600 X103 Y111.187
G1 F1350 X103 Y93.828 E189.29875
G0 F3600 X98.114 Y121.357
G0 X98.2 Y124.077
G1 F1350 X98.2 Y154.227 E192.9088
G0 F3600 X99.8 Y153.748
M104 T0 S200
G1 F1350 X99.8 Y126.01 E196.23005
G0 F3600 X101.4 Y126.923
G1 F1350 X101.4 Y153.079 E199.36188
G0 F3600 X103 Y152.204
G1 F1350 X103 Y127.8 E202.28393
G0 F3600 X104.6 Y129.054
G1 F1350 X104.6 Y150.941 E204.9046
G0 F3600 X106.2 Y149.289
G1 F1350 X106.2 Y130.714 E207.12871
G0 F3600 X107.8 Y133.078
G1 F1350 X107.8 Y146.92 E208.7861
G0 F3600 X109.4 Y142.25
G1 F1350 X109.4 Y137.752 E209.32467
G0 F3600 X80.6 Y137.778
G1 F1350 X80.6 Y142.254 E209.86062
G0 F3600 X81.507 Y132.382
G0 X81.485 Y131.767
G0 X81.384 Y131.147
G0 X81.206 Y130.543
G0 X80.959 Y129.984
G0 X80.633 Y129.443
G0 X80.243 Y128.948
G0 X79.804 Y128.515
G0 X79.403 Y128.21
G0 X61.4 Y118.537
M104 S185
G1 F1350 X61.4 Y86.463 E213.70104
G0 F3600 X59.8 Y88.555
G1 F1350 X59.8 Y116.448 E217.04085
G0 F3600 X58.2 Y113.776
G1 F1350 X58.2 Y91.223 E219.74127
G0 F3600 X56.6 Y95.097
G1 F1350 X56.6 Y109.913 E221.51529
G1 F1500 E218.51529
G0 F3600 X56.72 Y93.248
G0 X50 Y2
G1 F1200 E217.51529
G92 E0
T0
G92 E0
M105
M109 S200
M104 T1 S190
M106 S255
G0 F3600 X50 Y2 Z0.36
G1 F1200 E1
G0 F3600 X50 Y12
G0 X50 Y2
;TIME_ELAPSED:99.069863
;LAYER:-5
M140 S60
M107
M104 S185
G0 X50 Y2 Z0.66
G1 F1200 E0
G92 E0
T1
G92 E0
M105
M109 S190
M104 T0 S175
G1 F1200 E1
G0 F3600 X99.524 Y87.62 Z0.66
M104 S200
;TYPE:SUPPORT
G1 F1500 E4
G1 F1350 X99.255 Y87.235 E4.04686
G1 X98.943 Y86.824 E4.09835
G1 X98.117 Y85.955 E4.21798
G1 X98.126 Y85.952 E4.21893
G1 X97.986 Y85.793 E4.24007
G1 X97.415 Y85.197 E4.32242
G1 X96.843 Y84.639 E4.40216
G1 X96.61 Y84.427 E4.43359
G1 X95.505 Y83.465 E4.57978
G1 X94.882 Y82.975 E4.65886
G1 X94.365 Y82.593 E4.723
G1 X94.357 Y82.587 E4.724
G1 X99.903 Y88.133 E5.5066
G1 X100.003 Y88.268 E5.52336
G1 X100.367 Y88.794 E5.58719
G1 X100.873 Y89.577 E5.68021
G1 X101.3 Y90.294 E5.76348
G1 X101.718 Y91.059 E5.85046
G1 X102.01 Y91.655 E5.91669
G1 X90.821 Y80.466 E7.49558
G1 X90.79 Y80.45 E7.49906
G1 X90.031 Y80.093 E7.58275
G1 X89.269 Y79.77 E7.66533
G1 X88.373 Y79.432 E7.76088
G1 X103.123 Y94.182 E9.84227
G1 X103.262 Y94.656 E9.89156
G1 X103.512 Y95.442 E9.97386
G1 X103.692 Y96.071 E10.03914
G1 X103.724 Y96.197 E10.05211
G1 X86.3 Y78.773 E12.51082
G1 X85.467 Y78.568 E12.59642
G1 X85.056 Y78.485 E12.63826
G1 X84.449 Y78.336 E12.70062
G1 X104.135 Y98.022 E15.47853
G1 X104.234 Y98.574 E15.53449
G1 X104.351 Y99.382 E15.61595
G1 X104.384 Y99.686 E15.64646
G1 X82.814 Y78.116 E18.69022
G1 X82.729 Y78.104 E18.69879
G1 X81.903 Y78.027 E18.78156
G1 X81.271 Y77.986 E18.84476
G1 X104.512 Y101.227 E22.12431
G1 X104.537 Y101.778 E22.17935
G1 X104.548 Y102.476 E22.249
G1 X104.545 Y102.675 E22.26886
G1 X79.827 Y77.957 E25.75684
G1 X79.318 Y77.961 E25.80763
G1 X78.492 Y77.999 E25.89013
G1 X78.458 Y78.002 E25.89354
G1 X104.5 Y104.044 E29.56835
G1 X104.426 Y104.943 E29.65835
G1 X104.382 Y105.341 E29.69831
G1 X77.161 Y78.119 E33.53956
G1 X76.869 Y78.151 E33.56887
G1 X76.4 Y78.193 E33.61585
G1 X75.908 Y78.252 E33.66529
G1 X75.885 Y78.258 E33.66767
G1 X104.204 Y106.577 E37.66378
G1 X104.059 Y107.374 E37.74461
G1 X103.975 Y107.762 E37.78423
G1 X74.737 Y78.524 E41.91002
G1 X74.344 Y78.609 E41.95014
G1 X73.598 Y78.799 E42.02696
G1 X103.699 Y108.9 E46.27453
G1 X103.682 Y108.963 E46.28104
G1 X103.373 Y109.988 E46.38786
G1 X72.508 Y79.123 E50.74325
G1 X72.152 Y79.237 E50.78055
G1 X71.457 Y79.487 E50.85425
G1 X103.045 Y111.074 E55.31158
G1 X103.037 Y111.097 E55.31401
G1 X102.848 Y111.538 E55.36189
G1 X102.64 Y111.985 E55.41108
G1 X102.61 Y112.054 E55.41859
G1 X70.445 Y79.888 E59.95749
G1 X69.943 Y80.103 E60.01198
G1 X69.706 Y80.213 E60.03805
G1 X69.472 Y80.33 E60.06415
G1 X102.17 Y113.028 E64.67819
G1 X101.939 Y113.508 E64.73135
G1 X101.697 Y113.969 E64.7833
G1 X68.526 Y80.798 E69.46408
G1 X68.516 Y80.802 E69.46516
G1 X67.794 Y81.199 E69.54737
G1 X67.618 Y81.304 E69.56782
G1 X101.195 Y114.881 E74.3059
G1 X101.121 Y115.008 E74.32057
G1 X100.698 Y115.696 E74.40115
G1 X100.657 Y115.758 E74.40857
G1 X66.742 Y81.843 E79.19434
G1 X66.302 Y82.126 E79.24654
G1 X65.895 Y82.409 E79.29601
G1 X100.087 Y116.601 E84.12087
G1 X99.748 Y117.079 E84.17934
G1 X99.556 Y117.328 E84.21071
G1 X99.491 Y117.42 E84.22195
G1 X65.078 Y83.007 E89.078
G1 X64.99 Y83.072 E89.08891
G1 X64.359 Y83.575 E89.16943
G1 X64.292 Y83.635 E89.17841
G1 X98.895 Y118.238 E94.06126
G1 X98.642 Y118.557 E94.10189
G1 X98.65 Y118.564 E94.10295
G1 X98.506 Y118.759 E94.12714
G1 X98.325 Y119.083 E94.16417
G1 X63.536 Y84.293 E99.07334
G1 X63.155 Y84.637 E99.12456
G1 X62.806 Y84.977 E99.17318
G1 X97.895 Y120.067 E104.12469
G1 X97.742 Y120.647 E104.18454
G1 X97.663 Y121.249 E104.24512
G1 X62.105 Y85.691 E109.26274
G1 X61.788 Y86.044 E109.31008
G1 X61.793 Y86.049 E109.31078
G1 X61.43 Y86.43 E109.36329
G1 X97.746 Y122.746 E114.48787
G1 X97.898 Y123.346 E114.54963
G1 X98.149 Y123.981 E114.61776
G1 X98.475 Y124.581 E114.6859
G1 X98.877 Y125.134 E114.75412
G1 X99.345 Y125.632 E114.8223
G1 X99.87 Y126.067 E114.89034
G1 X100.295 Y126.335 E114.94047
G1 X100.281 Y126.356 E114.94299
G1 X101.021 Y126.717 E115.02514
G0 F3600 X107.366 Y132.267
G1 F1350 X107.274 Y132.11 E115.0433
G1 X107.141 Y131.905 E115.06768
G1 X106.803 Y131.445 E115.12464
