;MINX:-10.0
;MINY-10.0
;MINZ:0.0
;MAXX:10.0
;MAXY10.0
;MAXZ:20.0
;FLAVOR:Marlin
;TIME:1484
;Filament used: 1.50246m, 0m
;Layer height: 0.2
;Generated with Cura_SteamEngine 
T0
M140 S60
M105
M190 S60
M104 S210
M105
M109 S210
M82 ;absolute extrusion mode
;STE Slicer 5D Gcode
START
G1 F200 E15 ;extrude 15 mm of feed stock
G1 F200 E13.5 ;make retraction
G92 E0 ;zero the extruded length again
G54;Move to the first coordinate system
G92 E0
G1 F1800 E-3
;LAYER_COUNT:101
;LAYER:-6
M107
G0 F3600 X146.311 Y138.944 Z0.24
;TYPE:SUPPORT-INTERFACE
G1 F1800 E0
G1 F1350 X146.438 Y138.813 E0.01456
G1 X146.547 Y138.727 E0.02565
G1 X146.693 Y138.627 E0.03977
G1 X146.804 Y138.57 E0.04973
G1 X146.987 Y138.492 E0.06561
G1 X147.432 Y138.409 E0.10175
G1 X147.634 Y138.4 E0.11789
G1 X167.37 Y138.4 E1.6933
G1 X167.588 Y138.411 E1.71072
G1 X167.872 Y138.451 E1.73362
G1 X167.982 Y138.484 E1.74279
G1 X168.183 Y138.561 E1.75997
G1 X168.447 Y138.719 E1.78453
G1 X168.556 Y138.811 E1.79591
G1 X168.686 Y138.938 E1.81042
G1 X168.773 Y139.047 E1.82155
G1 X168.872 Y139.191 E1.8355
G1 X168.929 Y139.302 E1.84546
G1 X169.017 Y139.519 E1.86415
G1 X169.091 Y139.932 E1.89765
G1 X169.1 Y140.134 E1.91379
G1 X169.1 Y159.87 E3.4892
G1 X169.079 Y160.19 E3.5148
G1 X169.047 Y160.38 E3.53018
G1 X168.939 Y160.682 E3.55578
G1 X168.88 Y160.791 E3.56567
G1 X168.781 Y160.946 E3.58036
G1 X168.691 Y161.054 E3.59158
G1 X168.558 Y161.189 E3.60671
G1 X168.454 Y161.272 E3.61733
G1 X168.305 Y161.374 E3.63174
G1 X168.196 Y161.43 E3.64152
G1 X168.016 Y161.507 E3.65715
G1 X167.567 Y161.591 E3.69361
G1 X167.367 Y161.6 E3.70959
G1 X147.63 Y161.6 E5.28509
G1 X147.31 Y161.579 E5.31069
G1 X147.107 Y161.543 E5.32714
G1 X147.018 Y161.516 E5.33457
G1 X146.817 Y161.439 E5.35175
G1 X146.706 Y161.378 E5.36186
G1 X146.547 Y161.277 E5.3769
G1 X146.326 Y161.075 E5.4008
G1 X146.236 Y160.965 E5.41214
G1 X146.126 Y160.805 E5.42764
G1 X146.07 Y160.696 E5.43742
G1 X145.99 Y160.505 E5.45395
G1 X145.909 Y160.068 E5.48943
G1 X145.9 Y159.859 E5.50613
G1 X145.9 Y140.124 E7.08146
G1 X145.92 Y139.816 E7.1061
G1 X145.957 Y139.609 E7.12288
G1 X146.061 Y139.317 E7.14763
G1 X146.219 Y139.053 E7.17219
G1 X146.311 Y138.944 E7.18357
G0 F3600 X147.2 Y138.452
G1 F1350 X147.2 Y161.559 E9.02807
G0 F3600 X148.8 Y161.6
G1 F1350 X148.8 Y138.4 E10.88
G0 F3600 X150.4 Y138.4
G1 F1350 X150.4 Y161.6 E12.73192
G0 F3600 X152 Y161.6
G1 F1350 X152 Y138.4 E14.58385
G0 F3600 X153.6 Y138.4
G1 F1350 X153.6 Y161.6 E16.43577
G0 F3600 X155.2 Y161.6
G1 F1350 X155.2 Y138.4 E18.28769
G0 F3600 X156.8 Y138.4
G1 F1350 X156.8 Y161.6 E20.13962
G0 F3600 X158.4 Y161.6
G1 F1350 X158.4 Y138.4 E21.99154
G0 F3600 X160 Y138.4
G1 F1350 X160 Y161.6 E23.84347
G0 F3600 X161.6 Y161.6
G1 F1350 X161.6 Y138.4 E25.69539
G0 F3600 X163.2 Y138.4
G1 F1350 X163.2 Y161.6 E27.54732
G0 F3600 X164.8 Y161.6
G1 F1350 X164.8 Y138.4 E29.39924
G0 F3600 X166.4 Y138.4
G1 F1350 X166.4 Y161.6 E31.25116
G0 F3600 X168 Y161.51
G1 F1350 X168 Y138.491 E33.08864
G0 F3600 X145.909 Y160.067
;TIME_ELAPSED:25.040574
;LAYER:-5
M140 S60
G0 X145.909 Y160.067 Z0.54
;TYPE:SUPPORT
G1 F1350 X145.989 Y160.504 E33.13297
G1 X146.069 Y160.695 E33.15363
G1 X146.125 Y160.803 E33.16577
G1 X146.236 Y160.963 E33.1852
G1 X146.325 Y161.074 E33.1994
G1 X146.547 Y161.276 E33.22935
G1 X146.706 Y161.377 E33.24814
G1 X146.816 Y161.438 E33.26069
G1 X147.018 Y161.515 E33.28226
G1 X147.107 Y161.542 E33.29154
G1 X147.31 Y161.578 E33.31211
G1 X147.444 Y161.586 E33.32551
G1 X145.907 Y160.05 E33.54232
G1 X145.9 Y159.858 E33.5615
G1 X145.899 Y158.627 E33.68433
G1 X148.871 Y161.599 E34.10371
G1 X150.285 Y161.599 E34.2448
G1 X145.899 Y157.213 E34.86371
G1 X145.899 Y155.798 E35.0049
G1 X151.699 Y161.599 E35.82341
G1 X153.114 Y161.599 E35.9646
G1 X145.899 Y154.384 E36.98271
G1 X145.899 Y152.97 E37.1238
G1 X154.528 Y161.599 E38.34145
G1 X155.942 Y161.599 E38.48254
G1 X145.899 Y151.556 E39.89971
G1 X145.899 Y150.142 E40.0408
G1 X157.356 Y161.599 E41.65751
G1 X158.77 Y161.599 E41.7986
G1 X145.899 Y148.727 E43.61491
G1 X145.899 Y147.313 E43.756
G1 X160.185 Y161.599 E45.77191
G1 X161.599 Y161.599 E45.913
G1 X145.899 Y145.899 E48.12843
G1 X145.899 Y144.485 E48.26952
G1 X163.013 Y161.599 E50.68449
G1 X164.427 Y161.599 E50.82558
G1 X145.899 Y143.071 E53.44008
G1 X145.899 Y141.656 E53.58127
G1 X165.841 Y161.599 E56.39538
G1 X167.256 Y161.599 E56.53657
G1 X145.899 Y140.242 E59.55027
G1 X145.899 Y140.123 E59.56214
G1 X145.919 Y139.815 E59.59294
G1 X145.956 Y139.609 E59.61382
G1 X146.059 Y139.317 E59.64472
G1 X146.182 Y139.111 E59.66866
G1 X168.387 Y161.316 E62.80202
G1 X168.453 Y161.271 E62.81
G1 X168.557 Y161.189 E62.82321
G1 X168.69 Y161.053 E62.84219
G1 X168.78 Y160.945 E62.85622
G1 X168.879 Y160.791 E62.87449
G1 X168.938 Y160.682 E62.88685
G1 X168.999 Y160.513 E62.90478
G1 X146.98 Y138.495 E66.01183
G1 X146.986 Y138.492 E66.0125
G1 X147.431 Y138.409 E66.05767
G1 X147.633 Y138.399 E66.07785
G1 X148.3 Y138.4 E66.1444
G1 X169.099 Y159.2 E69.07943
G1 X169.099 Y157.785 E69.22062
G1 X149.714 Y138.4 E71.95606
G1 X151.128 Y138.4 E72.09715
G1 X169.099 Y156.371 E74.63305
G1 X169.099 Y154.957 E74.77414
G1 X152.542 Y138.4 E77.11051
G1 X153.956 Y138.4 E77.2516
G1 X169.099 Y153.543 E79.38844
G1 X169.099 Y152.129 E79.52953
G1 X155.371 Y138.4 E81.46677
G1 X156.785 Y138.4 E81.60786
G1 X169.099 Y150.714 E83.3455
G1 X169.099 Y149.3 E83.48659
G1 X158.199 Y138.4 E85.02469
G1 X159.613 Y138.4 E85.16578
G1 X169.099 Y147.886 E86.50436
G1 X169.099 Y146.472 E86.64545
G1 X161.028 Y138.4 E87.78443
G1 X162.442 Y138.4 E87.92551
G1 X169.099 Y145.058 E88.86496
G1 X169.099 Y143.643 E89.00615
G1 X163.856 Y138.4 E89.74599
G1 X165.27 Y138.4 E89.88708
G1 X169.099 Y142.229 E90.4274
G1 X169.099 Y140.815 E90.56849
G1 X166.684 Y138.4 E90.90927
G1 X167.369 Y138.4 E90.97762
G1 X167.587 Y138.41 E90.99939
G1 X167.871 Y138.451 E91.02802
G1 X167.981 Y138.484 E91.03948
G1 X168.181 Y138.561 E91.06087
G1 X168.376 Y138.677 E91.08351
G1 X168.831 Y139.133 E91.14778
G0 F3600 X168.772 Y139.046
G1 F1350 X168.685 Y138.937 E91.1617
G1 X168.555 Y138.811 E91.17976
G1 X168.446 Y138.719 E91.194
G1 X168.376 Y138.677 E91.20214
G0 F3600 X168.274 Y138.383
;TIME_ELAPSED:52.415565
;LAYER:-4
G0 X168.274 Y138.383 Z0.74
;TYPE:SUPPORT-INTERFACE
G1 F1800 X168.054 Y138.298 E91.20998
G1 X167.906 Y138.253 E91.21513
G1 X167.619 Y138.213 E91.22477
G1 X167.36 Y138.2 E91.23339
G1 X147.625 Y138.2 E91.88978
G1 X147.409 Y138.209 E91.89697
G1 X146.986 Y138.286 E91.91127
G1 X146.927 Y138.302 E91.91331
G1 X146.709 Y138.394 E91.92118
G1 X146.698 Y138.4 E91.92159
G1 X168.306 Y138.4 E92.64028
G1 X168.39 Y138.446 E92.64346
G1 X168.566 Y138.558 E92.6504
G1 X168.68 Y138.654 E92.65536
G1 X168.83 Y138.8 E92.66232
G1 X146.174 Y138.8 E93.41586
G1 X146.15 Y138.824 E93.41699
G1 X146.057 Y138.934 E93.42178
G1 X145.946 Y139.11 E93.4287
G1 X145.898 Y139.2 E93.4321
G1 X169.102 Y139.2 E94.20386
G1 X169.106 Y139.209 E94.20419
G1 X169.196 Y139.42 E94.21182
G1 X169.214 Y139.486 E94.2141
G1 X169.235 Y139.6 E94.21795
G1 X145.756 Y139.6 E94.99887
G1 X145.724 Y139.77 E95.00462
G1 X145.709 Y140 E95.01229
G1 X169.295 Y140 E95.79676
G1 X169.3 Y140.116 E95.80062
G1 X169.3 Y140.4 E95.81007
G1 X145.7 Y140.4 E96.59501
G1 X145.7 Y140.8 E96.60831
G1 X169.3 Y140.8 E97.39325
G1 X169.3 Y141.2 E97.40655
G1 X145.7 Y141.2 E98.19149
G1 X145.7 Y141.6 E98.2048
G1 X169.3 Y141.6 E98.98974
G1 X169.3 Y142 E99.00304
G1 X145.7 Y142 E99.78798
G1 X145.7 Y142.4 E99.80128
G1 X169.3 Y142.4 E100.58622
G1 X169.3 Y142.8 E100.59953
G1 X145.7 Y142.8 E101.38447
G1 X145.7 Y143.2 E101.39777
G1 X169.3 Y143.2 E102.18271
G1 X169.3 Y143.6 E102.19601
G1 X145.7 Y143.6 E102.98095
G1 X145.7 Y144 E102.99426
G1 X169.3 Y144 E103.7792
G1 X169.3 Y144.4 E103.7925
G1 X145.7 Y144.4 E104.57744
G1 X145.7 Y144.8 E104.59074
G1 X169.3 Y144.8 E105.37568
G1 X169.3 Y145.2 E105.38899
G1 X145.7 Y145.2 E106.17392
G1 X145.7 Y145.6 E106.18723
G1 X169.3 Y145.6 E106.97217
G1 X169.3 Y146 E106.98547
G1 X145.7 Y146 E107.77041
G1 X145.7 Y146.4 E107.78372
G1 X169.3 Y146.4 E108.56865
G1 X169.3 Y146.8 E108.58196
G1 X145.7 Y146.8 E109.3669
G1 X145.7 Y147.2 E109.3802
G1 X169.3 Y147.2 E110.16514
G1 X169.3 Y147.6 E110.17845
G1 X145.7 Y147.6 E110.96338
G1 X145.7 Y148 E110.97669
G1 X169.3 Y148 E111.76163
G1 X169.3 Y148.4 E111.77493
G1 X145.7 Y148.4 E112.55987
G1 X145.7 Y148.8 E112.57317
G1 X169.3 Y148.8 E113.35811
G1 X169.3 Y149.2 E113.37142
G1 X145.7 Y149.2 E114.15636
G1 X145.7 Y149.6 E114.16966
G1 X169.3 Y149.6 E114.9546
G1 X169.3 Y150 E114.9679
G1 X145.7 Y150 E115.75284
G1 X145.7 Y150.4 E115.76615
G1 X169.3 Y150.4 E116.55109
G1 X169.3 Y150.8 E116.56439
G1 X145.7 Y150.8 E117.34933
G1 X145.7 Y151.2 E117.36263
G1 X169.3 Y151.2 E118.14757
G1 X169.3 Y151.6 E118.16088
G1 X145.7 Y151.6 E118.94582
G1 X145.7 Y152 E118.95912
G1 X169.3 Y152 E119.74406
G1 X169.3 Y152.4 E119.75736
G1 X145.7 Y152.4 E120.5423
G1 X145.7 Y152.8 E120.55561
G1 X169.3 Y152.8 E121.34055
G1 X169.3 Y153.2 E121.35385
G1 X145.7 Y153.2 E122.13879
G1 X145.7 Y153.6 E122.15209
G1 X169.3 Y153.6 E122.93703
G1 X169.3 Y154 E122.95034
G1 X145.7 Y154 E123.73528
G1 X145.7 Y154.4 E123.74858
G1 X169.3 Y154.4 E124.53352
G1 X169.3 Y154.8 E124.54682
G1 X145.7 Y154.8 E125.33176
G1 X145.7 Y155.2 E125.34507
G1 X169.3 Y155.2 E126.13001
G1 X169.3 Y155.6 E126.14331
G1 X145.7 Y155.6 E126.92825
G1 X145.7 Y156 E126.94155
G1 X169.3 Y156 E127.72649
G1 X169.3 Y156.4 E127.7398
G1 X145.7 Y156.4 E128.52474
G1 X145.7 Y156.8 E128.53804
G1 X169.3 Y156.8 E129.32298
G1 X169.3 Y157.2 E129.33628
G1 X145.7 Y157.2 E130.12122
G1 X145.7 Y157.6 E130.13453
G1 X169.3 Y157.6 E130.91947
G1 X169.3 Y158 E130.93277
G1 X145.7 Y158 E131.71771
G1 X145.7 Y158.4 E131.73101
G1 X169.3 Y158.4 E132.51595
G1 X169.3 Y158.8 E132.52926
G1 X145.7 Y158.8 E133.3142
G1 X145.7 Y159.2 E133.3275
G1 X169.3 Y159.2 E134.11244
G1 X169.3 Y159.6 E134.12574
G1 X145.7 Y159.6 E134.91068
G1 X145.7 Y159.876 E134.91986
G1 X145.705 Y160 E134.92399
G1 X169.29 Y160 E135.70843
G1 X169.276 Y160.226 E135.71596
G1 X169.244 Y160.4 E135.72184
G1 X145.764 Y160.4 E136.50279
G1 X145.786 Y160.517 E136.50675
G1 X145.799 Y160.564 E136.50837
G1 X145.893 Y160.789 E136.51648
G1 X145.898 Y160.8 E136.51689
G1 X169.102 Y160.8 E137.28865
G1 X169.047 Y160.901 E137.29248
G1 X168.943 Y161.066 E137.29897
G1 X168.846 Y161.18 E137.30395
G1 X168.826 Y161.2 E137.30489
G1 X146.172 Y161.2 E138.05836
G1 X146.319 Y161.346 E138.06525
G1 X146.43 Y161.439 E138.07007
G1 X146.61 Y161.554 E138.07717
G1 X146.695 Y161.6 E138.08039
G1 X168.302 Y161.6 E138.79904
G1 X168.291 Y161.606 E138.79946
G1 X168.074 Y161.698 E138.8073
G1 X168.014 Y161.714 E138.80936
G1 X167.587 Y161.791 E138.82379
G1 X167.375 Y161.8 E138.83085
G1 X147.64 Y161.8 E139.48724
G1 X147.274 Y161.776 E139.49944
G1 X147.055 Y161.736 E139.50684
G1 X146.742 Y161.625 E139.51789
G0 F3600 X145.999 Y139.023
;TIME_ELAPSED:104.532136
;LAYER:-3
G0 X145.999 Y139.023 Z0.94
;TYPE:SUPPORT-INTERFACE
G1 F1800 X145.999 Y160.973 E140.24795
G1 X145.951 Y160.903 E140.25077
G1 X145.892 Y160.788 E140.25507
G1 X145.798 Y160.563 E140.26318
G1 X145.785 Y160.516 E140.2648
G1 X145.708 Y160.089 E140.27923
G1 X145.699 Y159.875 E140.28636
G1 X145.699 Y140.133 E140.94298
G1 X145.723 Y139.769 E140.95511
G1 X145.762 Y139.558 E140.96225
G1 X145.796 Y139.446 E140.96614
G1 X145.882 Y139.225 E140.97403
G1 X145.945 Y139.109 E140.97842
G0 F3600 X145.999 Y160.973
G1 F1800 X146.069 Y161.076 E140.98256
G1 X146.146 Y161.174 E140.98671
G1 X146.318 Y161.345 E140.99477
G1 X146.399 Y161.412 E140.99827
G1 X146.399 Y138.586 E141.75747
G1 X146.41 Y138.578 E141.75792
G1 X146.595 Y138.451 E141.76538
G1 X146.708 Y138.393 E141.76961
G1 X146.799 Y138.354 E141.7729
G1 X146.799 Y161.644 E142.54753
G1 X147.054 Y161.735 E142.55653
G1 X147.199 Y161.761 E142.56143
G1 X147.199 Y138.246 E143.34354
G1 X147.408 Y138.208 E143.35061
G1 X147.599 Y138.2 E143.35697
G1 X147.599 Y161.796 E144.14177
G1 X147.639 Y161.799 E144.14311
G1 X147.999 Y161.799 E144.15508
G1 X147.999 Y138.199 E144.94002
G1 X148.399 Y138.199 E144.95332
G1 X148.399 Y161.799 E145.73826
G1 X148.799 Y161.799 E145.75157
G1 X148.799 Y138.199 E146.53651
G1 X149.199 Y138.199 E146.54981
G1 X149.199 Y161.799 E147.33475
G1 X149.599 Y161.799 E147.34805
G1 X149.599 Y138.199 E148.13299
G1 X149.999 Y138.199 E148.1463
G1 X149.999 Y161.799 E148.93124
G1 X150.399 Y161.799 E148.94454
G1 X150.399 Y138.199 E149.72948
G1 X150.799 Y138.199 E149.74278
G1 X150.799 Y161.799 E150.52772
G1 X151.199 Y161.799 E150.54103
G1 X151.199 Y138.199 E151.32597
G1 X151.599 Y138.199 E151.33927
G1 X151.599 Y161.799 E152.12421
G1 X151.999 Y161.799 E152.13751
G1 X151.999 Y138.199 E152.92245
G1 X152.399 Y138.199 E152.93576
G1 X152.399 Y161.799 E153.7207
G1 X152.799 Y161.799 E153.734
G1 X152.799 Y138.199 E154.51894
G1 X153.199 Y138.199 E154.53224
G1 X153.199 Y161.799 E155.31718
G1 X153.599 Y161.799 E155.33049
G1 X153.599 Y138.199 E156.11543
G1 X153.999 Y138.199 E156.12873
G1 X153.999 Y161.799 E156.91367
G1 X154.399 Y161.799 E156.92697
G1 X154.399 Y138.199 E157.71191
G1 X154.799 Y138.199 E157.72522
G1 X154.799 Y161.799 E158.51016
G1 X155.199 Y161.799 E158.52346
G1 X155.199 Y138.199 E159.3084
G1 X155.599 Y138.199 E159.3217
G1 X155.599 Y161.799 E160.10664
G1 X155.999 Y161.799 E160.11995
G1 X155.999 Y138.199 E160.90489
G1 X156.399 Y138.199 E160.91819
G1 X156.399 Y161.799 E161.70313
G1 X156.799 Y161.799 E161.71643
G1 X156.799 Y138.199 E162.50137
G1 X157.199 Y138.199 E162.51468
G1 X157.199 Y161.799 E163.29962
G1 X157.599 Y161.799 E163.31292
G1 X157.599 Y138.199 E164.09786
G1 X157.999 Y138.199 E164.11116
G1 X157.999 Y161.799 E164.8961
G1 X158.399 Y161.799 E164.90941
G1 X158.399 Y138.199 E165.69435
G1 X158.799 Y138.199 E165.70765
G1 X158.799 Y161.799 E166.49259
G1 X159.199 Y161.799 E166.50589
G1 X159.199 Y138.199 E167.29083
G1 X159.599 Y138.199 E167.30414
G1 X159.599 Y161.799 E168.08907
G1 X159.999 Y161.799 E168.10238
G1 X159.999 Y138.199 E168.88732
G1 X160.399 Y138.199 E168.90062
G1 X160.399 Y161.799 E169.68556
G1 X160.799 Y161.799 E169.69887
G1 X160.799 Y138.199 E170.4838
G1 X161.199 Y138.199 E170.49711
G1 X161.199 Y161.799 E171.28205
G1 X161.599 Y161.799 E171.29535
G1 X161.599 Y138.199 E172.08029
G1 X161.999 Y138.199 E172.0936
G1 X161.999 Y161.799 E172.87853
G1 X162.399 Y161.799 E172.89184
G1 X162.399 Y138.199 E173.67678
G1 X162.799 Y138.199 E173.69008
G1 X162.799 Y161.799 E174.47502
G1 X163.199 Y161.799 E174.48832
G1 X163.199 Y138.199 E175.27326
G1 X163.599 Y138.199 E175.28657
G1 X163.599 Y161.799 E176.07151
G1 X163.999 Y161.799 E176.08481
G1 X163.999 Y138.199 E176.86975
G1 X164.399 Y138.199 E176.88305
G1 X164.399 Y161.799 E177.66799
G1 X164.799 Y161.799 E177.6813
G1 X164.799 Y138.199 E178.46624
G1 X165.199 Y138.199 E178.47954
G1 X165.199 Y161.799 E179.26448
G1 X165.599 Y161.799 E179.27778
G1 X165.599 Y138.199 E180.06272
G1 X165.999 Y138.199 E180.07603
G1 X165.999 Y161.799 E180.86097
G1 X166.399 Y161.799 E180.87427
G1 X166.399 Y138.199 E181.65921
G1 X166.799 Y138.199 E181.67251
G1 X166.799 Y161.799 E182.45745
G1 X167.199 Y161.799 E182.47076
G1 X167.199 Y138.199 E183.2557
G1 X167.359 Y138.199 E183.26102
G1 X167.599 Y138.212 E183.26901
G1 X167.599 Y161.788 E184.05315
G1 X167.999 Y161.716 E184.06667
G1 X167.999 Y138.281 E184.84612
G1 X168.053 Y138.297 E184.848
G1 X168.273 Y138.382 E184.85584
G1 X168.389 Y138.445 E184.86023
G1 X168.399 Y138.452 E184.86064
G1 X168.399 Y161.55 E185.62888
G1 X168.406 Y161.546 E185.62915
G1 X168.588 Y161.42 E185.63651
G1 X168.686 Y161.342 E185.64068
G1 X168.799 Y161.227 E185.64604
G1 X168.799 Y138.771 E186.39293
G1 X168.842 Y138.812 E186.3949
G1 X168.92 Y138.91 E186.39907
