;VERSION:0.5.0
;MINX:-122.5
;MINY:-122.5
;MINZ:0.0
;MAXX:122.5
;MAXY:122.5
;MAXZ:2.0
;FLAVOR:Marlin 
;TIME:26337 
;Filament used: 13.2754m, 0m 
;Layer height: 0.2 
;Generated with Cura_SteamEngine  
T0 
M140 S100 
M105 
M190 S100 
M104 S240 
M105 
M109 S240 
M82 ;absolute extrusion mode 
;STE Slicer 5D Gcode
START
G1 F200 E15 ;extrude 15 mm of feed stock
G1 F200 E13.5 ;make retraction
G92 E0 ;zero the extruded length again
G54;Move to the first coordinate system 
G92 E0 
G1 F1500 E-6.5 
;LAYER_COUNT:11 
;LAYER:0 
M107 
M107 P3 
;MESH:Тестовая решетка новая.STL 
G0 F1800 X84 Y76.5 Z0.2 
;TYPE:WALL-INNER 
G1 F1500 E0 
G1 F900 X36 Y76.5 E1.59649 
G1 X36 Y28.5 E3.19297 
G1 X84 Y28.5 E4.78946 
G1 X84 Y76.5 E6.38595 
G0 F1800 X108.509 Y101.25 
G0 X84.134 Y125.636 
G0 X84 Y174 
G1 F900 X36 Y174 E7.98243 
G1 X36 Y126 E9.57892 
G1 X84 Y126 E11.17541 
G1 X84 Y174 E12.77189 
G0 F1800 X108.509 Y198.75 
G0 X84.134 Y223.136 
G0 X84 Y271.5 
G1 F900 X36 Y271.5 E14.36838 
G1 X36 Y223.5 E15.96486 
G1 X84 Y223.5 E17.56135 
G1 X84 Y271.5 E19.15784 
G0 F1800 X181.5 Y271.5 
G1 F900 X133.5 Y271.5 E20.75432 
G1 X133.5 Y223.5 E22.35081 
G1 X181.5 Y223.5 E23.9473 
G1 X181.5 Y271.5 E25.54378 
G0 F1800 X279 Y271.5 
G1 F900 X231 Y271.5 E27.14027 
G1 X231 Y223.5 E28.73676 
G1 X279 Y223.5 E30.33324 
G1 X279 Y271.5 E31.92973 
G0 F1800 X279 Y174 
G1 F900 X231 Y174 E33.52622 
G1 X231 Y126 E35.1227 
G1 X279 Y126 E36.71919 
G1 X279 Y174 E38.31568 
G0 F1800 X230.636 Y174.134 
G0 X206.25 Y198.509 
G0 X181.5 Y174 
G1 F900 X133.5 Y174 E39.91216 
G1 X133.5 Y126 E41.50865 
G1 X181.5 Y126 E43.10514 
G1 X181.5 Y174 E44.70162 
G0 F1800 X181.634 Y125.636 
G0 X206.009 Y101.25 
G0 X181.5 Y76.5 
G1 F900 X133.5 Y76.5 E46.29811 
G1 X133.5 Y28.5 E47.89459 
G1 X181.5 Y28.5 E49.49108 
G1 X181.5 Y76.5 E51.08757 
G0 F1800 X206.25 Y101.009 
G0 X230.636 Y76.634 
G0 X279 Y76.5 
G1 F900 X231 Y76.5 E52.68405 
G1 X231 Y28.5 E54.28054 
G1 X279 Y28.5 E55.87703 
G1 X279 Y76.5 E57.47351 
G0 F1800 X230.866 Y76.864 
G0 X206.462 Y101.179 
G0 X206.532 Y101.25 
G1 F900 X230.882 Y125.6 E58.61886 
G1 X279.4 Y125.6 E60.23258 
G1 X279.4 Y174.4 E61.85567 
G1 X230.882 Y174.4 E63.46939 
G1 X206.532 Y198.75 E64.61474 
G1 X230.882 Y223.1 E65.76009 
G1 X279.4 Y223.1 E67.3738 
G1 X279.4 Y271.9 E68.9969 
G1 X230.6 Y271.9 E70.61999 
G1 X230.6 Y223.382 E72.23371 
G1 X206.25 Y199.032 E73.37333 
G1 X181.9 Y223.382 E74.51868 
G1 X181.9 Y271.9 E76.13239 
G1 X133.1 Y271.9 E77.75549 
G1 X84.4 Y271.9 E79.37526 
G1 X35.6 Y271.9 E80.99835 
G1 X35.6 Y223.1 E82.62145 
G1 X84.118 Y223.1 E84.23516 
G1 X108.468 Y198.75 E85.38051 
G1 X84.118 Y174.4 E86.52586 
G1 X35.6 Y174.4 E88.13957 
G1 X35.6 Y125.6 E89.76267 
G1 X84.118 Y125.6 E91.37638 
G1 X108.468 Y101.25 E92.52173 
G1 X84.118 Y76.9 E93.66708 
G1 X35.6 Y76.9 E95.2808 
G1 X35.6 Y28.1 E96.90389 
G1 X84.4 Y28.1 E98.52699 
G1 X133.1 Y28.1 E100.14676 
G1 X181.9 Y28.1 E101.76985 
G1 X230.6 Y28.1 E103.38962 
G1 X279.4 Y28.1 E105.01271 
G1 X279.4 Y76.9 E106.63581 
G1 X230.882 Y76.9 E108.24952 
G1 X206.532 Y101.25 E109.39487 
G0 F1800 X206.462 Y101.179 
G0 X206.25 Y101.009 
G0 X181.864 Y76.634 
G0 X181.9 Y28.2 
G0 X181.9 Y28.1 
G1 F900 X181.9 Y76.618 E111.00859 
G1 X206.25 Y100.968 E112.15394 
G1 X230.6 Y76.618 E113.29356 
G1 X230.6 Y28.1 E114.90728 
G1 X181.9 Y28.1 
G0 F1800 X181.9 Y28.2 
G0 X84.4 Y28.2 
G0 X84.4 Y28.1 
G1 F900 X84.4 Y76.618 E116.52099 
G1 X108.75 Y100.968 E117.66061 
G1 X133.1 Y76.618 E118.80596 
G1 X133.1 Y28.1 E120.41968 
G1 X84.4 Y28.1 
G0 F1800 X84.4 Y28.2 
G0 X84.364 Y76.634 
G0 X106.311 Y98.571 
G0 X108.962 Y101.179 
G0 X109.032 Y101.25 
G1 F900 X133.382 Y125.6 E121.56503 
G1 X181.618 Y125.6 E123.16936 
G1 X205.968 Y101.25 E124.31471 
G1 X181.618 Y76.9 E125.45434 
G1 X133.382 Y76.9 E127.05867 
G1 X109.032 Y101.25 E128.19829 
G0 F1800 X108.962 Y101.179 
G0 X119.428 Y112.165 
G0 X133.136 Y125.866 
G0 X133.136 Y174.134 
G0 X108.75 Y198.509 
G0 X108.679 Y198.538 
G0 X108.75 Y198.468 
G1 F900 X133.1 Y174.118 E129.34364 
G1 X133.1 Y125.882 E130.94798 
G1 X108.75 Y101.532 E132.0876 
G1 X84.4 Y125.882 E133.22722 
G1 X84.4 Y174.118 E134.83156 
G1 X108.75 Y198.468 E135.97118 
G0 F1800 X109.032 Y198.75 
G1 F900 X133.382 Y223.1 E137.11653 
G1 X181.618 Y223.1 E138.72087 
G1 X205.968 Y198.75 E139.86049 
G1 X181.618 Y174.4 E141.00584 
G1 X133.382 Y174.4 E142.61018 
G1 X109.032 Y198.75 E143.7498 
G0 F1800 X108.962 Y198.679 
G0 X84.364 Y223.366 
G0 X84.4 Y271.8 
G0 X84.4 Y271.9 
G1 F900 X133.1 Y271.9 
G1 X133.1 Y223.382 E145.36351 
G1 X108.75 Y199.032 E146.50314 
G1 X84.4 Y223.382 E147.64276 
G1 X84.4 Y271.9 E149.25647 
G0 F1800 X84.4 Y271.8 
G0 X133.128 Y271.513 
G0 X181.634 Y223.136 
G0 X203.571 Y201.189 
G0 X206.179 Y198.538 
G0 X206.25 Y198.468 
G1 F900 X230.6 Y174.118 E150.3961 
G1 X230.6 Y125.882 E152.00043 
G1 X206.25 Y101.532 E153.14005 
G1 X181.9 Y125.882 E154.27968 
G1 X181.9 Y174.118 E155.88401 
G1 X206.25 Y198.468 E157.02364 
G0 F1800 X206.25 Y197.902 
;TYPE:WALL-OUTER 
G1 F900 X230.2 Y173.952 E158.15017 
G1 X230.2 Y126.048 E159.74346 
G1 X206.25 Y102.098 E160.87 
G1 X182.3 Y126.048 E161.99653 
G1 X182.3 Y173.952 E163.58983 
G1 X206.25 Y197.902 E164.71636 
G0 F1800 X206.391 Y197.761 
G0 X206.744 Y198.115 
G0 X206.745 Y198.396 
G0 X207.098 Y198.75 
G1 F900 X231.048 Y222.7 E165.8429 
G1 X279 Y222.7 E167.43779 
G1 X279 Y174.8 E169.03095 
G1 X231.048 Y174.8 E170.62584 
G1 X207.098 Y198.75 E171.75237 
G0 F1800 X207.239 Y198.891 
G0 X206.885 Y199.244 
G0 X206.25 Y198.991 
G0 X181.864 Y223.366 
G0 X181.872 Y271.513 
G0 X182.3 Y271.585 
G0 X182.3 Y271.5 
G1 F900 X230.2 Y271.5 E173.34553 
G1 X230.2 Y223.548 E174.94042 
G1 X206.25 Y199.598 E176.06696 
G1 X182.3 Y223.548 E177.19349 
G1 X182.3 Y271.5 E178.78838 
G0 F1800 X182.5 Y271.5 
G0 X182.5 Y271.585 
G0 X84.8 Y271.585 
G0 X84.8 Y271.5 
G1 F900 X132.7 Y271.5 E180.38154 
G1 X132.7 Y223.548 E181.97643 
G1 X108.75 Y199.598 E183.10297 
G1 X84.8 Y223.548 E184.2295 
G1 X84.8 Y271.5 E185.82439 
G0 F1800 X85 Y271.5 
G0 X85 Y271.585 
G0 X84.372 Y271.513 
G0 X84.364 Y223.366 
G0 X109.245 Y198.396 
G0 X109.598 Y198.75 
G1 F900 X133.548 Y222.7 E186.95092 
G1 X181.452 Y222.7 E188.54422 
G1 X205.402 Y198.75 E189.67075 
G1 X181.452 Y174.8 E190.79729 
G1 X133.548 Y174.8 E192.39058 
G1 X109.598 Y198.75 E193.51712 
G0 F1800 X109.739 Y198.891 
G0 X109.385 Y199.244 
G0 X108.396 Y198.255 
G0 X108.75 Y197.902 
G1 F900 X132.7 Y173.952 E194.64365 
G1 X132.7 Y126.048 E196.23694 
G1 X108.75 Y102.098 E197.36348 
G1 X84.8 Y126.048 E198.49001 
G1 X84.8 Y173.952 E200.08331 
G1 X108.75 Y197.902 E201.20984 
G0 F1800 X108.891 Y197.761 
G0 X109.244 Y198.115 
G0 X108.75 Y198.509 
G0 X84.134 Y174.364 
G0 X35.987 Y174.372 
G0 X35.915 Y174.8 
G0 X36 Y174.8 
G1 F900 X36 Y222.7 E202.803 
G1 X83.952 Y222.7 E204.39789 
G1 X107.902 Y198.75 E205.52443 
G1 X83.952 Y174.8 E206.65096 
G1 X36 Y174.8 E208.24585 
G0 F1800 X36 Y175 
G0 X35.915 Y175 
G0 X35.915 Y77.3 
G0 X36 Y77.3 
G1 F900 X36 Y125.2 E209.83901 
G1 X83.952 Y125.2 E211.4339 
G1 X107.902 Y101.25 E212.56044 
G1 X83.952 Y77.3 E213.68697 
G1 X36 Y77.3 E215.28186 
G0 F1800 X36 Y77.5 
G0 X35.915 Y77.5 
G0 X35.987 Y76.872 
G0 X84.372 Y28.487 
G0 X84.8 Y28.415 
G0 X84.8 Y28.5 
G1 F900 X84.8 Y76.452 E216.87675 
G1 X108.75 Y100.402 E218.00328 
G1 X132.7 Y76.452 E219.12982 
G1 X132.7 Y28.5 E220.72471 
G1 X84.8 Y28.5 E222.31787 
G0 F1800 X84.8 Y28.7 
G0 X84.8 Y28.415 
G0 X84.372 Y28.487 
G0 X84.364 Y76.634 
G0 X108.75 Y101.009 
G0 X109.245 Y100.896 
G0 X109.598 Y101.25 
G1 F900 X133.548 Y125.2 E223.4444 
G1 X181.452 Y125.2 E225.0377 
G1 X205.402 Y101.25 E226.16423 
G1 X181.452 Y77.3 E227.29077 
G1 X133.548 Y77.3 E228.88406 
G1 X109.598 Y101.25 E230.01059 
G0 F1800 X109.739 Y101.391 
G0 X109.385 Y101.744 
G0 X133.366 Y125.636 
G0 X181.634 Y125.636 
G0 X206.745 Y100.896 
G0 X207.098 Y101.25 
G1 F900 X231.048 Y125.2 E231.13713 
G1 X279 Y125.2 E232.73202 
G1 X279 Y77.3 E234.32518 
G1 X231.048 Y77.3 E235.92007 
G1 X207.098 Y101.25 E237.0466 
G0 F1800 X207.239 Y101.391 
G0 X206.885 Y101.744 
G0 X181.864 Y76.634 
G0 X181.872 Y28.487 
G0 X182.3 Y28.415 
G0 X182.3 Y28.5 
G1 F900 X182.3 Y76.452 E238.64149 
G1 X206.25 Y100.402 E239.76803 
G1 X230.2 Y76.452 E240.89456 
G1 X230.2 Y28.5 E242.48945 
G1 X182.3 Y28.5 E244.08261 
G0 F1800 X182.3 Y28.7 
G0 X182.3 Y28.415 
G0 X181.872 Y28.487 
G0 X181.864 Y76.634 
G0 X279.013 Y174.372 
G0 X279.33 Y271.83 
G0 X279.8 Y272.3 
G1 F900 X35.2 Y272.3 E252.21804 
G1 X35.2 Y27.7 E260.35347 
G1 X279.8 Y27.7 E268.4889 
G1 X279.8 Y272.3 E276.62433 
G0 F1800 X279.6 Y272.3 
G0 X279.33 Y271.83 
G0 X278.61 Y271.11 
;TYPE:SKIN 
G1 F900 X231.39 Y271.11 E278.19487 
G1 X231.39 Y223.89 E279.76542 
G1 X278.61 Y223.89 E281.33596 
G1 X278.61 Y271.11 E282.9065 
G0 F1800 X278.429 Y224.689 
G1 F900 X277.81 Y224.07 E282.93562 
G0 F1800 X277.244 Y224.07 
G1 F900 X278.429 Y225.255 E282.99136 
G0 F1800 X278.429 Y225.82 
G1 F900 X276.678 Y224.07 E283.0737 
G0 F1800 X276.113 Y224.07 
G1 F900 X278.429 Y226.386 E283.18263 
G0 F1800 X278.429 Y226.952 
G1 F900 X275.547 Y224.07 E283.3182 
G0 F1800 X274.981 Y224.07 
G1 F900 X278.429 Y227.517 E283.48036 
G0 F1800 X278.429 Y228.083 
G1 F900 X274.416 Y224.07 E283.66911 
G0 F1800 X273.85 Y224.07 
G1 F900 X278.429 Y228.649 E283.8845 
G0 F1800 X278.429 Y229.215 
G1 F900 X273.284 Y224.07 E284.1265 
G0 F1800 X272.719 Y224.07 
G1 F900 X278.429 Y229.78 E284.39508 
G0 F1800 X278.429 Y230.346 
G1 F900 X272.153 Y224.07 E284.69029 
G0 F1800 X271.587 Y224.07 
G1 F900 X278.429 Y230.912 E285.01211 
G0 F1800 X278.429 Y231.477 
G1 F900 X271.022 Y224.07 E285.36052 
G0 F1800 X270.456 Y224.07 
G1 F900 X278.429 Y232.043 E285.73554 
G0 F1800 X278.429 Y232.609 
G1 F900 X269.89 Y224.07 E286.13719 
G0 F1800 X269.324 Y224.07 
G1 F900 X278.429 Y233.174 E286.56544 
G0 F1800 X278.429 Y233.74 
G1 F900 X268.759 Y224.07 E287.02028 
G0 F1800 X268.193 Y224.07 
G1 F900 X278.429 Y234.306 E287.50175 
G0 F1800 X278.429 Y234.871 
G1 F900 X267.627 Y224.07 E288.00982 
G0 F1800 X267.062 Y224.07 
G1 F900 X278.429 Y235.437 E288.54449 
G0 F1800 X278.429 Y236.003 
G1 F900 X266.496 Y224.07 E289.10578 
G0 F1800 X265.93 Y224.07 
G1 F900 X278.429 Y236.568 E289.69368 
G0 F1800 X278.429 Y237.134 
G1 F900 X265.365 Y224.07 E290.30817 
G0 F1800 X264.799 Y224.07 
G1 F900 X278.429 Y237.7 E290.94928 
G0 F1800 X278.429 Y238.265 
G1 F900 X264.233 Y224.07 E291.61699 
G0 F1800 X263.668 Y224.07 
G1 F900 X278.429 Y238.831 E292.3113 
G0 F1800 X278.429 Y239.397 
G1 F900 X263.102 Y224.07 E293.03224 
G0 F1800 X262.536 Y224.07 
G1 F900 X278.429 Y239.963 E293.7798 
G0 F1800 X278.429 Y240.528 
G1 F900 X261.971 Y224.07 E294.55393 
G0 F1800 X261.405 Y224.07 
G1 F900 X278.429 Y241.094 E295.35469 
G0 F1800 X278.429 Y241.66 
G1 F900 X260.839 Y224.07 E296.18207 
G0 F1800 X260.273 Y224.07 
G1 F900 X278.429 Y242.225 E297.03605 
G0 F1800 X278.429 Y242.791 
G1 F900 X259.708 Y224.07 E297.91663 
G0 F1800 X259.142 Y224.07 
G1 F900 X278.429 Y243.357 E298.82383 
G0 F1800 X278.429 Y243.922 
G1 F900 X258.576 Y224.07 E299.75763 
G0 F1800 X258.011 Y224.07 
G1 F900 X278.429 Y244.488 E300.71803 
G0 F1800 X278.429 Y245.054 
G1 F900 X257.445 Y224.07 E301.70505 
G0 F1800 X256.879 Y224.07 
G1 F900 X278.429 Y245.619 E302.71867 
G0 F1800 X278.429 Y246.185 
G1 F900 X256.314 Y224.07 E303.75889 
G0 F1800 X255.748 Y224.07 
G1 F900 X278.429 Y246.751 E304.82574 
G0 F1800 X278.429 Y247.316 
G1 F900 X255.182 Y224.07 E305.91918 
G0 F1800 X254.617 Y224.07 
G1 F900 X278.429 Y247.882 E307.03923 
G0 F1800 X278.429 Y248.448 
G1 F900 X254.051 Y224.07 E308.18589 
G0 F1800 X253.485 Y224.07 
G1 F900 X278.429 Y249.014 E309.35918 
G0 F1800 X278.429 Y249.579 
G1 F900 X252.92 Y224.07 E310.55905 
G0 F1800 X252.354 Y224.07 
G1 F900 X278.429 Y250.145 E311.78554 
G0 F1800 X278.429 Y250.711 
G1 F900 X251.788 Y224.07 E313.03865 
G0 F1800 X251.223 Y224.07 
G1 F900 X278.429 Y251.276 E314.31833 
G0 F1800 X278.429 Y251.842 
G1 F900 X250.657 Y224.07 E315.62464 
G0 F1800 X250.091 Y224.07 
G1 F900 X278.429 Y252.408 E316.95758 
G0 F1800 X278.429 Y252.973 
G1 F900 X249.525 Y224.07 E318.31711 
G0 F1800 X248.96 Y224.07 
G1 F900 X278.429 Y253.539 E319.70324 
G0 F1800 X278.429 Y254.105 
G1 F900 X248.394 Y224.07 E321.11599 
G0 F1800 X247.828 Y224.07 
G1 F900 X278.429 Y254.67 E322.55535 
G0 F1800 X278.429 Y255.236 
G1 F900 X247.263 Y224.07 E324.0213 
G0 F1800 X246.697 Y224.07 
G1 F900 X278.429 Y255.802 E325.51388 
G0 F1800 X278.429 Y256.367 
G1 F900 X246.131 Y224.07 E327.03305 
G0 F1800 X245.566 Y224.07 
G1 F900 X278.429 Y256.933 E328.57883 
G0 F1800 X278.429 Y257.499 
G1 F900 X245 Y224.07 E330.15122 
G0 F1800 X244.434 Y224.07 
G1 F900 X278.429 Y258.064 E331.75022 
G0 F1800 X278.429 Y258.63 
G1 F900 X243.869 Y224.07 E333.37582 
G0 F1800 X243.303 Y224.07 
G1 F900 X278.429 Y259.196 E335.02804 
G0 F1800 X278.429 Y259.762 
G1 F900 X242.737 Y224.07 E336.70688 
G0 F1800 X242.172 Y224.07 
G1 F900 X278.429 Y260.327 E338.4123 
G0 F1800 X278.429 Y260.893 
G1 F900 X241.606 Y224.07 E340.14434 
G0 F1800 X241.04 Y224.07 
G1 F900 X278.429 Y261.459 E341.903 
G0 F1800 X278.429 Y262.024 
G1 F900 X240.474 Y224.07 E343.68827 
G0 F1800 X239.909 Y224.07 
G1 F900 X278.429 Y262.59 E345.50013 
G0 F1800 X278.429 Y263.156 
G1 F900 X239.343 Y224.07 E347.33861 
G0 F1800 X238.777 Y224.07 
G1 F900 X278.429 Y263.721 E349.2037 
G0 F1800 X278.429 Y264.287 
G1 F900 X238.212 Y224.07 E351.09538 
G0 F1800 X237.646 Y224.07 
G1 F900 X278.429 Y264.853 E353.01369 
G0 F1800 X278.429 Y265.418 
G1 F900 X237.08 Y224.07 E354.9586 
G0 F1800 X236.515 Y224.07 
G1 F900 X278.429 Y265.984 E356.9301 
G0 F1800 X278.429 Y266.55 
G1 F900 X235.949 Y224.07 E358.92823 
G0 F1800 X235.383 Y224.07 
G1 F900 X278.429 Y267.115 E360.95296 
G0 F1800 X278.429 Y267.681 
G1 F900 X234.818 Y224.07 E363.00429 
G0 F1800 X234.252 Y224.07 
G1 F900 X278.429 Y268.247 E365.08224 
G0 F1800 X278.429 Y268.813 
G1 F900 X233.686 Y224.07 E367.18681 
G0 F1800 X233.121 Y224.07 
G1 F900 X278.429 Y269.378 E369.31796 
G0 F1800 X278.429 Y269.944 
G1 F900 X232.555 Y224.07 E371.47573 
G0 F1800 X231.989 Y224.07 
G1 F900 X278.429 Y270.51 E373.66013 
G0 F1800 X278.283 Y270.929 
G1 F900 X231.569 Y224.215 E375.85741 
G0 F1800 X231.569 Y224.781 
G1 F900 X277.717 Y270.929 E378.02807 
G0 F1800 X277.151 Y270.929 
G1 F900 X231.569 Y225.347 E380.17211 
G0 F1800 X231.569 Y225.912 
G1 F900 X276.586 Y270.929 E382.28957 
G0 F1800 X276.02 Y270.929 
G1 F900 X231.569 Y226.478 E384.38041 
G0 F1800 X231.569 Y227.044 
G1 F900 X275.454 Y270.929 E386.44463 
G0 F1800 X274.889 Y270.929 
G1 F900 X231.569 Y227.609 E388.48227 
G0 F1800 X231.569 Y228.175 
G1 F900 X274.323 Y270.929 E390.49328 
G0 F1800 X273.757 Y270.929 
G1 F900 X231.569 Y228.741 E392.47768 
G0 F1800 X231.569 Y229.306 
G1 F900 X273.192 Y270.929 E394.4355 
G0 F1800 X272.626 Y270.929 
G1 F900 X231.569 Y229.872 E396.36669 
G0 F1800 X231.569 Y230.438 
G1 F900 X272.06 Y270.929 E398.27126 
G0 F1800 X271.495 Y270.929 
G1 F900 X231.569 Y231.004 E400.14924 
G0 F1800 X231.569 Y231.569 
G1 F900 X270.929 Y270.929 E402.00061 
G0 F1800 X270.363 Y270.929 
G1 F900 X231.569 Y232.135 E403.82536 
G0 F1800 X231.569 Y232.701 
G1 F900 X269.798 Y270.929 E405.62351 
G0 F1800 X269.232 Y270.929 
G1 F900 X231.569 Y233.266 E407.39507 
G0 F1800 X231.569 Y233.832 
G1 F900 X268.666 Y270.929 E409.13999 
G0 F1800 X268.1 Y270.929 
G1 F900 X231.569 Y234.398 E410.8583 
G0 F1800 X231.569 Y234.963 
G1 F900 X267.535 Y270.929 E412.55003 
G0 F1800 X266.969 Y270.929 
G1 F900 X231.569 Y235.529 E414.21514 
G0 F1800 X231.569 Y236.095 
G1 F900 X266.403 Y270.929 E415.85362 
G0 F1800 X265.838 Y270.929 
