VERSION:3.5.30-nightly
;MINX:-12.5
;MINY:-12.5
;MINZ:-0.0
;MAXX:12.5
;MAXY:12.5
;MAXZ:10.0
;FLAVOR:Marlin
;TIME:2030
;Filament used: 1.14381m, 0m
;Layer height: 0.2
;FLAVOR:Marlin 
;TIME:1804 
;Filament used: 1.24662m, 0m 
;Layer height: 0.2 
;Generated with Cura_SteamEngine  
G28 A0 ; park the axle A, if not, there will be an error
G28 C0 ; park the axle C, if not, there will be an error
T0 
M104 S220 
M105 
M109 S220 
M82 ;absolute extrusion mode 
;STE Slicer 5D Gcode
START
G1 F200 E15 ;extrude 15 mm of feed stock
G1 F200 E13.5 ;make retraction
G92 E0 ;zero the extruded length again
G56;Move to the first coordinate system 
G92 E0 
G10 L2 P2 X160.444 Y250.039 Z63.856  ; set wsc params for run test, because will be ERROR
G10 L2 P3 X160.444 Y203.338 Z17.163  ; set wsc params for run test, because will be ERROR
G1 F1800 E-3 
;LAYER_COUNT:51 
;LAYER:0
T0
G56;Set basement coordinate system
G92 E0

G0 X0.00 Y15.00 Z3.20 A90.00 C-30.000 F3600
;TYPE:SKIRT
G1 Y14.98 C-29.523 F1800 E0.00549
G1 Y14.96 C-29.045 E0.01098
G1 Y14.94 C-28.568 E0.01646
G1 Y14.92 C-28.090 E0.02195
G1 Y14.90 C-27.613 E0.02744
G1 Y14.88 C-27.135 E0.03293
G1 Y14.86 C-26.658 E0.03842
G1 Y14.84 C-26.180 E0.04390
G1 Y14.82 C-25.703 E0.04939
G1 Y14.80 C-25.225 E0.05488
G1 Y14.78 C-24.748 E0.06037
G1 Y14.76 C-24.270 E0.06586
G1 Y14.74 C-23.793 E0.07134
G1 Y14.72 C-23.315 E0.07683
G1 Y14.70 C-22.838 E0.08232
G1 Y14.68 C-22.361 E0.08781
G1 Y14.66 C-21.883 E0.09330
G1 Y14.64 C-21.406 E0.09878
G1 Y14.62 C-20.928 E0.10427
G1 Y14.60 C-20.451 E0.10976
G1 Y14.58 C-19.973 E0.11525
G1 Y14.56 C-19.496 E0.12074
G1 Y14.54 C-19.018 E0.12623
G1 Y14.52 C-18.541 E0.13171
G1 Y14.50 C-18.063 E0.13720
G1 Y14.48 C-17.586 E0.14269
G1 Y14.46 C-17.108 E0.14818
G1 Y14.44 C-16.631 E0.15367
G1 Y14.42 C-16.154 E0.15915
G1 Y14.40 C-15.676 E0.16464
G1 Y14.38 C-15.199 E0.17013
G1 Y14.36 C-14.721 E0.17562
G1 Y14.34 C-14.244 E0.18111
G1 Y14.32 C-13.766 E0.18659
G1 Y14.30 C-13.289 E0.19208
G1 Y14.28 C-12.811 E0.19757
G1 Y14.26 C-12.334 E0.20306
G1 Y14.24 C-11.856 E0.20855
G1 Y14.22 C-11.379 E0.21403
G1 Y14.20 C-10.901 E0.21952
G1 Y14.18 C-10.424 E0.22501
G1 Y14.16 C-9.946 E0.23050
G1 Y14.14 C-9.469 E0.23599
G1 Y14.12 C-8.992 E0.24147
G1 Y14.10 C-8.514 E0.24696
G1 Y14.08 C-8.037 E0.25245
G1 Y14.06 C-7.559 E0.25794
G1 Y14.04 C-7.082 E0.26343
G1 Y14.02 C-6.604 E0.26891
G1 Y14.00 C-6.127 E0.27440
G1 Y13.98 C-5.649 E0.27989
G1 Y13.96 C-5.172 E0.28538
G1 Y13.94 C-4.694 E0.29087
G1 Y13.92 C-4.217 E0.29635
G1 Y13.90 C-3.739 E0.30184
G1 Y13.88 C-3.262 E0.30733
G1 Y13.86 C-2.785 E0.31282
G1 Y13.84 C-2.307 E0.31831
G1 Y13.82 C-1.830 E0.32379
G1 Y13.80 C-1.352 E0.32928
G1 Y13.78 C-0.875 E0.33477
G1 Y13.76 C-0.397 E0.34026
G1 Y13.74 C0.080 E0.34575
G1 Y13.72 C0.558 E0.35124
G1 Y13.70 C1.035 E0.35672
G1 Y13.68 C1.513 E0.36221
G1 Y13.66 C1.990 E0.36770
G1 Y13.64 C2.468 E0.37319
G1 Y13.62 C2.945 E0.37868
G1 Y13.60 C3.423 E0.38416
G1 Y13.58 C3.900 E0.38965
G1 Y13.56 C4.377 E0.39514
G1 Y13.54 C4.855 E0.40063
G1 Y13.52 C5.332 E0.40612
G1 Y13.50 C5.810 E0.41160
G1 Y13.48 C6.287 E0.41709
G1 Y13.46 C6.765 E0.42258
G1 Y13.44 C7.242 E0.42807
G1 Y13.42 C7.720 E0.43356
G1 Y13.40 C8.197 E0.43904
G1 Y13.38 C8.675 E0.44453
G1 Y13.36 C9.152 E0.45002
G1 Y13.34 C9.630 E0.45551
G1 Y13.32 C10.107 E0.46100
G1 Y13.30 C10.585 E0.46648
G1 Y13.28 C11.062 E0.47197
G1 Y13.26 C11.539 E0.47746
G1 Y13.24 C12.017 E0.48295
G1 Y13.22 C12.494 E0.48844
G1 Y13.20 C12.972 E0.49392
G1 Y13.18 C13.449 E0.49941
G1 Y13.16 C13.927 E0.50490
G1 Y13.14 C14.404 E0.51039
G1 Y13.12 C14.882 E0.51588
G1 Y13.10 C15.359 E0.52136
G1 Y13.08 C15.837 E0.52685
G1 Y13.06 C16.314 E0.53234
G1 Y13.04 C16.792 E0.53783
G1 Y13.02 C17.269 E0.54332
G1 Y13.00 C17.746 E0.54880
G1 Y12.98 C18.224 E0.55429
G1 Y12.96 C18.701 E0.55978
G1 Y12.94 C19.179 E0.56527
G1 Y12.92 C19.656 E0.57076
G1 Y12.90 C20.134 E0.57625
G1 Y12.88 C20.611 E0.58173
G1 Y12.86 C21.089 E0.58722
G1 Y12.84 C21.566 E0.59271
G1 Y12.82 C22.044 E0.59820
G1 Y12.80 C22.521 E0.60369
G1 Y12.78 C22.999 E0.60917
G1 Y12.76 C23.476 E0.61466
G1 Y12.74 C23.954 E0.62015
G1 Y12.72 C24.431 E0.62564
G1 Y12.70 C24.908 E0.63113
G1 Y12.68 C25.386 E0.63661
G1 Y12.66 C25.863 E0.64210
G1 Y12.64 C26.341 E0.64759
G1 Y12.62 C26.818 E0.65308
G1 Y12.60 C27.296 E0.65857
G1 Y12.58 C27.773 E0.66405
G1 Y12.56 C28.251 E0.66954
G1 Y12.54 C28.728 E0.67503
G1 Y12.52 C29.206 E0.68052
G1 Y12.50 C29.683 E0.68601
G1 Y12.48 C30.161 E0.69149
G1 Y12.46 C30.638 E0.69698
G1 Y12.44 C31.115 E0.70247
G1 Y12.42 C31.593 E0.70796
G1 Y12.40 C32.070 E0.71345
G1 Y12.38 C32.548 E0.71893
G1 Y12.36 C33.025 E0.72442
G1 Y12.34 C33.503 E0.72991
G1 Y12.32 C33.980 E0.73540
G1 Y12.30 C34.458 E0.74089
G1 Y12.28 C34.935 E0.74637
G1 Y12.26 C35.413 E0.75186
G1 Y12.24 C35.890 E0.75735
G1 Y12.22 C36.368 E0.76284
G1 Y12.20 C36.845 E0.76833
G1 Y12.18 C37.323 E0.77382
G1 Y12.16 C37.800 E0.77930
G1 Y12.14 C38.277 E0.78479
G1 Y12.12 C38.755 E0.79028
G1 Y12.10 C39.232 E0.79577
G1 Y12.08 C39.710 E0.80126
G1 Y12.06 C40.187 E0.80674
G1 Y12.04 C40.665 E0.81223
G1 Y12.02 C41.142 E0.81772
G1 Y12.00 C41.620 E0.82321
G1 Y11.98 C42.097 E0.82870
G1 Y11.96 C42.575 E0.83418
G1 Y11.94 C43.052 E0.83967
G1 Y11.92 C43.530 E0.84516
G1 Y11.90 C44.007 E0.85065
G1 Y11.88 C44.485 E0.85614
G1 Y11.86 C44.962 E0.86162
G1 Y11.84 C45.439 E0.86711
G1 Y11.82 C45.917 E0.87260
G1 Y11.80 C46.394 E0.87809
G1 Y11.78 C46.872 E0.88358
G1 Y11.76 C47.349 E0.88906
G1 Y11.74 C47.827 E0.89455
G1 Y11.72 C48.304 E0.90004
G1 Y11.70 C48.782 E0.90553
G1 Y11.68 C49.259 E0.91102
G1 Y11.66 C49.737 E0.91650
G1 Y11.64 C50.214 E0.92199
G1 Y11.62 C50.692 E0.92748
G1 Y11.60 C51.169 E0.93297
G1 Y11.58 C51.646 E0.93846
G1 Y11.56 C52.124 E0.94394
G1 Y11.54 C52.601 E0.94943
G1 Y11.52 C53.079 E0.95492
G1 Y11.50 C53.556 E0.96041
G1 Y11.48 C54.034 E0.96590
G1 Y11.46 C54.511 E0.97138
G1 Y11.44 C54.989 E0.97687
G1 Y11.42 C55.466 E0.98236
G1 Y11.40 C55.944 E0.98785
G1 Y11.38 C56.421 E0.99334
G1 Y11.36 C56.899 E0.99883
G1 Y11.34 C57.376 E1.00431
G1 Y11.32 C57.854 E1.00980
G1 Y11.30 C58.331 E1.01529
G1 Y11.28 C58.808 E1.02078
G1 Y11.26 C59.286 E1.02627
G1 Y11.24 C59.763 E1.03175
G1 Y11.22 C60.241 E1.03724
G1 Y11.20 C60.718 E1.04273
G1 Y11.18 C61.196 E1.04822
G1 Y11.16 C61.673 E1.05371
G1 Y11.14 C62.151 E1.05919
G1 Y11.12 C62.628 E1.06468
G1 Y11.10 C63.106 E1.07017
G1 Y11.08 C63.583 E1.07566
G1 Y11.06 C64.061 E1.08115
G1 Y11.04 C64.538 E1.08663
G1 Y11.02 C65.016 E1.09212
G1 Y11.00 C65.493 E1.09761
G1 Y10.98 C65.970 E1.10310
G1 Y10.96 C66.448 E1.10859
G1 Y10.94 C66.925 E1.11407
G1 Y10.92 C67.403 E1.11956
G1 Y10.90 C67.880 E1.12505
G1 Y10.88 C68.358 E1.13054
G1 Y10.86 C68.835 E1.13603
G1 Y10.84 C69.313 E1.14151
G1 Y10.82 C69.790 E1.14700
G1 Y10.80 C70.268 E1.15249
G1 Y10.78 C70.745 E1.15798
G1 Y10.76 C71.223 E1.16347
G1 Y10.74 C71.700 E1.16895
G1 Y10.72 C72.177 E1.17444
G1 Y10.70 C72.655 E1.17993
G1 Y10.68 C73.132 E1.18542
G1 Y10.66 C73.610 E1.19091
G1 Y10.64 C74.087 E1.19639
G1 Y10.62 C74.565 E1.20188
G1 Y10.60 C75.042 E1.20737
G1 Y10.58 C75.520 E1.21286
G1 Y10.56 C75.997 E1.21835
G1 Y10.54 C76.475 E1.22384
G1 Y10.52 C76.952 E1.22932
G1 Y10.50 C77.430 E1.23481
G1 Y10.48 C77.907 E1.24030
G1 Y10.46 C78.385 E1.24579
G1 Y10.44 C78.862 E1.25128
G1 Y10.42 C79.339 E1.25676
G1 Y10.40 C79.817 E1.26225
G1 Y10.38 C80.294 E1.26774
G1 Y10.36 C80.772 E1.27323
G1 Y10.34 C81.249 E1.27872
G1 Y10.32 C81.727 E1.28420
G1 Y10.30 C82.204 E1.28969
G1 Y10.28 C82.682 E1.29518
G1 Y10.26 C83.159 E1.30067
G1 Y10.24 C83.637 E1.30616
G1 Y10.22 C84.114 E1.31164
G1 Y10.20 C84.592 E1.31713
G1 Y10.18 C85.069 E1.32262
G1 Y10.16 C85.546 E1.32811
G1 Y10.14 C86.024 E1.33360
G1 Y10.12 C86.501 E1.33908
G1 Y10.10 C86.979 E1.34457
G1 Y10.08 C87.456 E1.35006
G1 Y10.06 C87.934 E1.35555
G1 Y10.04 C88.411 E1.36104
G1 Y10.02 C88.889 E1.36652
G1 Y10.00 C89.366 E1.37201
G1 Y9.98 C89.844 E1.37750
G1 Y9.96 C90.321 E1.38299
G1 Y9.94 C90.799 E1.38848
G1 Y9.92 C91.276 E1.39396
G1 Y9.90 C91.754 E1.39945
G1 Y9.88 C92.231 E1.40494
G1 Y9.86 C92.708 E1.41043
G1 Y9.84 C93.186 E1.41592
G1 Y9.82 C93.663 E1.42140
G1 Y9.80 C94.141 E1.42689
G1 Y9.78 C94.618 E1.43238
G1 Y9.76 C95.096 E1.43787
G1 Y9.74 C95.573 E1.44336
G1 Y9.72 C96.051 E1.44885
G1 Y9.70 C96.528 E1.45433
G1 Y9.68 C97.006 E1.45982
G1 Y9.66 C97.483 E1.46531
G1 Y9.64 C97.961 E1.47080
G1 Y9.62 C98.438 E1.47629
G1 Y9.60 C98.916 E1.48177
G1 Y9.58 C99.393 E1.48726
G1 Y9.56 C99.870 E1.49275
G1 Y9.54 C100.348 E1.49824
G1 Y9.52 C100.825 E1.50373
G1 Y9.50 C101.303 E1.50921
G1 Y9.48 C101.780 E1.51470
G1 Y9.46 C102.258 E1.52019
G1 Y9.44 C102.735 E1.52568
G1 Y9.42 C103.213 E1.53117
G1 Y9.40 C103.690 E1.53665
G1 Y9.38 C104.168 E1.54214
G1 Y9.36 C104.645 E1.54763
G1 Y9.34 C105.123 E1.55312
G1 Y9.32 C105.600 E1.55861
G1 Y9.30 C106.077 E1.56409
G1 Y9.28 C106.555 E1.56958
G1 Y9.26 C107.032 E1.57507
G1 Y9.24 C107.510 E1.58056
G1 Y9.22 C107.987 E1.58605
G1 Y9.20 C108.465 E1.59153
G1 Y9.18 C108.942 E1.59702
G1 Y9.16 C109.420 E1.60251
G1 Y9.14 C109.897 E1.60800
G1 Y9.12 C110.375 E1.61349
G1 Y9.10 C110.852 E1.61897
G1 Y9.08 C111.330 E1.62446
G1 Y9.06 C111.807 E1.62995
G1 Y9.04 C112.285 E1.63544
G1 Y9.02 C112.762 E1.64093
G1 Y9.00 C113.239 E1.64641
G1 Y8.98 C113.717 E1.65190
G1 Y8.96 C114.194 E1.65739
G1 Y8.94 C114.672 E1.66288
G1 Y8.92 C115.149 E1.66837
G1 Y8.90 C115.627 E1.67386
G1 Y8.88 C116.104 E1.67934
G1 Y8.86 C116.582 E1.68483
G1 Y8.84 C117.059 E1.69032
G1 Y8.82 C117.537 E1.69581
G1 Y8.80 C118.014 E1.70130
G1 Y8.78 C118.492 E1.70678
G1 Y8.76 C118.969 E1.71227
G1 Y8.74 C119.446 E1.71776
G1 Y8.72 C119.924 E1.72325
G1 Y8.70 C120.401 E1.72874
G1 Y8.68 C120.879 E1.73422
G1 Y8.66 C121.356 E1.73971
G1 Y8.64 C121.834 E1.74520
G1 Y8.62 C122.311 E1.75069
G1 Y8.60 C122.789 E1.75618
G1 Y8.58 C123.266 E1.76166
G1 Y8.56 C123.744 E1.76715
G1 Y8.54 C124.221 E1.77264
G1 Y8.52 C124.699 E1.77813
G1 Y8.50 C125.176 E1.78362
G1 Y8.48 C125.654 E1.78910
G1 Y8.46 C126.131 E1.79459
G1 Y8.44 C126.608 E1.80008
G1 Y8.42 C127.086 E1.80557
G1 Y8.40 C127.563 E1.81106
G1 Y8.38 C128.041 E1.81654
G1 Y8.36 C128.518 E1.82203
G1 Y8.34 C128.996 E1.82752
G1 Y8.32 C129.473 E1.83301
G1 Y8.30 C129.951 E1.83850
G1 Y8.28 C130.428 E1.84398
G1 Y8.26 C130.906 E1.84947
G1 Y8.24 C131.383 E1.85496
G1 Y8.22 C131.861 E1.86045
G1 Y8.20 C132.338 E1.86594
G1 Y8.18 C132.816 E1.87142
G1 Y8.16 C133.293 E1.87691
G1 Y8.14 C133.770 E1.88240
G1 Y8.12 C134.248 E1.88789
G1 Y8.10 C134.725 E1.89338
G1 Y8.08 C135.203 E1.89887
G1 Y8.06 C135.680 E1.90435
G1 Y8.04 C136.158 E1.90984
G1 Y8.02 C136.635 E1.91533
G1 Y8.00 C137.113 E1.92082
G1 Y7.98 C137.590 E1.92631
G1 Y7.96 C138.068 E1.93179
G1 Y7.94 C138.545 E1.93728
G1 Y7.92 C139.023 E1.94277
G1 Y7.90 C139.500 E1.94826
G1 Y7.88 C139.977 E1.95375
G1 Y7.86 C140.455 E1.95923
G1 Y7.84 C140.932 E1.96472
G1 Y7.82 C141.410 E1.97021
G1 Y7.80 C141.887 E1.97570
G1 Y7.78 C142.365 E1.98119
G1 Y7.76 C142.842 E1.98667
G1 Y7.74 C143.320 E1.99216
G1 Y7.72 C143.797 E1.99765
G1 Y7.70 C144.275 E2.00314
G1 Y7.68 C144.752 E2.00863
G1 Y7.66 C145.230 E2.01411
G1 Y7.64 C145.707 E2.01960
G1 Y7.62 C146.185 E2.02509
G1 Y7.60 C146.662 E2.03058
G1 Y7.58 C147.139 E2.03607
G1 Y7.56 C147.617 E2.04155
G1 Y7.54 C148.094 E2.04704
G1 Y7.52 C148.572 E2.05253
G1 Y7.50 C149.049 E2.05802
G1 Y7.48 C149.527 E2.06351
G1 Y7.46 C150.004 E2.06899
G1 Y7.44 C150.482 E2.07448
G1 Y7.42 C150.959 E2.07997
G1 Y7.40 C151.437 E2.08546
G1 Y7.38 C151.914 E2.09095
G1 Y7.36 C152.392 E2.09644
G1 Y7.34 C152.869 E2.10192
G1 Y7.32 C153.346 E2.10741
G1 Y7.30 C153.824 E2.11290
G1 Y7.28 C154.301 E2.11839
G1 Y7.26 C154.779 E2.12388
G1 Y7.24 C155.256 E2.12936
G1 Y7.22 C155.734 E2.13485
G1 Y7.20 C156.211 E2.14034
G1 Y7.18 C156.689 E2.14583
G1 Y7.16 C157.166 E2.15132
G1 Y7.14 C157.644 E2.15680
G1 Y7.12 C158.121 E2.16229
G1 Y7.10 C158.599 E2.16778
G1 Y7.08 C159.076 E2.17327
G1 Y7.06 C159.554 E2.17876
G1 Y7.04 C160.031 E2.18424
G1 Y7.02 C160.508 E2.18973
G1 Y7.00 C160.986 E2.19522
G1 Y6.98 C161.463 E2.20071
G1 Y6.96 C161.941 E2.20620
G1 Y6.94 C162.418 E2.21168
G1 Y6.92 C162.896 E2.21717
G1 Y6.90 C163.373 E2.22266
G1 Y6.88 C163.851 E2.22815
G1 Y6.86 C164.328 E2.23364
G1 Y6.84 C164.806 E2.23912
G1 Y6.82 C165.283 E2.24461
G1 Y6.80 C165.761 E2.25010
G1 Y6.78 C166.238 E2.25559
G1 Y6.76 C166.716 E2.26108
G1 Y6.74 C167.193 E2.26656
G1 Y6.72 C167.670 E2.27205
G1 Y6.70 C168.148 E2.27754
G1 Y6.68 C168.625 E2.28303
G1 Y6.66 C169.103 E2.28852
G1 Y6.64 C169.580 E2.29400
G1 Y6.62 C170.058 E2.29949
G1 Y6.60 C170.535 E2.30498
G1 Y6.58 C171.013 E2.31047
G1 Y6.56 C171.490 E2.31596
G1 Y6.54 C171.968 E2.32145
G1 Y6.52 C172.445 E2.32693
G1 Y6.50 C172.923 E2.33242
G1 Y6.48 C173.400 E2.33791
G1 Y6.46 C173.877 E2.34340
G1 Y6.44 C174.355 E2.34889
G1 Y6.42 C174.832 E2.35437
G1 Y6.40 C175.310 E2.35986
G1 Y6.38 C175.787 E2.36535
G1 Y6.36 C176.265 E2.37084
G1 Y6.34 C176.742 E2.37633
G1 Y6.32 C177.220 E2.38181
G1 Y6.30 C177.697 E2.38730
G1 Y6.28 C178.175 E2.39279
G1 Y6.26 C178.652 E2.39828
G1 Y6.24 C179.130 E2.40377
G1 Y6.22 C179.607 E2.40925
G1 Y6.20 C180.085 E2.41474
G1 Y6.18 C180.562 E2.42023
G1 Y6.16 C181.039 E2.42572
G1 Y6.14 C181.517 E2.43121
G1 Y6.12 C181.994 E2.43669
G1 Y6.10 C182.472 E2.44218
G1 Y6.08 C182.949 E2.44767
G1 Y6.06 C183.427 E2.45316
G1 Y6.04 C183.904 E2.45865
G1 Y6.02 C184.382 E2.46413
G1 Y6.00 C184.859 E2.46962
G1 Y5.98 C185.337 E2.47511
G1 Y5.96 C185.814 E2.48060
G1 Y5.94 C186.292 E2.48609
G1 Y5.92 C186.769 E2.49157
G1 Y5.90 C187.246 E2.49706
G1 Y5.88 C187.724 E2.50255
G1 Y5.86 C188.201 E2.50804
G1 Y5.84 C188.679 E2.51353
G1 Y5.82 C189.156 E2.51901
G1 Y5.80 C189.634 E2.52450
G1 Y5.78 C190.111 E2.52999
G1 Y5.76 C190.589 E2.53548
G1 Y5.74 C191.066 E2.54097
G1 Y5.72 C191.544 E2.54646
G1 Y5.70 C192.021 E2.55194
G1 Y5.68 C192.499 E2.55743
G1 Y5.66 C192.976 E2.56292
G1 Y5.64 C193.454 E2.56841
G1 Y5.62 C193.931 E2.57390
G1 Y5.60 C194.408 E2.57938
G1 Y5.58 C194.886 E2.58487
G1 Y5.56 C195.363 E2.59036
G1 Y5.54 C195.841 E2.59585
G1 Y5.52 C196.318 E2.60134
G1 Y5.50 C196.796 E2.60682
G1 Y5.48 C197.273 E2.61231
G1 Y5.46 C197.751 E2.61780
G1 Y5.44 C198.228 E2.62329
G1 Y5.42 C198.706 E2.62878
G1 Y5.40 C199.183 E2.63426
G1 Y5.38 C199.661 E2.63975
G1 Y5.36 C200.138 E2.64524
G1 Y5.34 C200.616 E2.65073
G1 Y5.32 C201.093 E2.65622
G1 Y5.30 C201.570 E2.66170
G1 Y5.28 C202.048 E2.66719
G1 Y5.26 C202.525 E2.67268
G1 Y5.24 C203.003 E2.67817
G1 Y5.22 C203.480 E2.68366
G1 Y5.20 C203.958 E2.68914
G1 Y5.18 C204.435 E2.69463
G1 Y5.16 C204.913 E2.70012
G1 Y5.14 C205.390 E2.70561
G1 Y5.12 C205.868 E2.71110
G1 Y5.10 C206.345 E2.71658
G1 Y5.08 C206.823 E2.72207
G1 Y5.06 C207.300 E2.72756
G1 Y5.04 C207.777 E2.73305
G1 Y5.02 C208.255 E2.73854
G1 Y5.00 C208.732 E2.74402
G1 Y4.98 C209.210 E2.74951
G1 Y4.96 C209.687 E2.75500
G1 Y4.94 C210.165 E2.76049
G1 Y4.92 C210.642 E2.76598
G1 Y4.90 C211.120 E2.77147
G1 Y4.88 C211.597 E2.77695
G1 Y4.86 C212.075 E2.78244
G1 Y4.84 C212.552 E2.78793
G1 Y4.82 C213.030 E2.79342
G1 Y4.80 C213.507 E2.79891
G1 Y4.78 C213.985 E2.80439
G1 Y4.76 C214.462 E2.80988
G1 Y4.74 C214.939 E2.81537
G1 Y4.72 C215.417 E2.82086
G1 Y4.70 C215.894 E2.82635
G1 Y4.68 C216.372 E2.83183
G1 Y4.66 C216.849 E2.83732
G1 Y4.64 C217.327 E2.84281
G1 Y4.62 C217.804 E2.84830
G1 Y4.60 C218.282 E2.85379
G1 Y4.58 C218.759 E2.85927
G1 Y4.56 C219.237 E2.86476
G1 Y4.54 C219.714 E2.87025
G1 Y4.52 C220.192 E2.87574
G1 Y4.50 C220.669 E2.88123
G1 Y4.48 C221.147 E2.88671
G1 Y4.46 C221.624 E2.89220
G1 Y4.44 C222.101 E2.89769
G1 Y4.42 C222.579 E2.90318
G1 Y4.40 C223.056 E2.90867
G1 Y4.38 C223.534 E2.91415
G1 Y4.36 C224.011 E2.91964
G1 Y4.34 C224.489 E2.92513
G1 Y4.32 C224.966 E2.93062
G1 Y4.30 C225.444 E2.93611
